; generated by Slic3r 1.2.9 on 2017-02-06 at 18:43:11

; external perimeters extrusion width = 0.50mm
; perimeters extrusion width = 0.72mm
; infill extrusion width = 0.72mm
; solid infill extrusion width = 0.72mm
; top infill extrusion width = 0.72mm

M107
M104 S270 ; set temperature
G28 ; home all axes
G1 Z5 F5000 ; lift nozzle

M109 S270 ; wait for temperature to be reached
G21 ; set units to millimeters
G90 ; use absolute coordinates
M82 ; use absolute distances for extrusion
G92 E0
G1 Z0.500 F7800.000
G1 E-2.00000 F2400.00000
G92 E0
G1 X76.406 Y34.619 F7800.000
G1 E2.00000 F2400.00000
G1 X77.113 Y33.239 E2.09791 F1800.000
G1 X77.729 Y32.225 E2.17279
G1 X78.407 Y31.251 E2.24772
G1 X78.869 Y30.656 E2.29530
G1 X79.643 Y29.757 E2.37021
G1 X80.472 Y28.909 E2.44513
G1 X81.353 Y28.114 E2.52004
G1 X82.282 Y27.376 E2.59496
G1 X82.632 Y27.122 E2.62231
G1 X83.621 Y26.466 E2.69719
G1 X84.649 Y25.874 E2.77211
G1 X85.713 Y25.347 E2.84706
G1 X86.807 Y24.889 E2.92197
G1 X87.926 Y24.500 E2.99681
G1 X88.650 Y24.290 E3.04439
G1 X89.806 Y24.017 E3.11939
G1 X90.975 Y23.819 E3.19425
G1 X91.405 Y23.764 E3.22162
G1 X92.587 Y23.666 E3.29651
G1 X93.773 Y23.643 E3.37146
G1 X94.958 Y23.693 E3.44635 F1800.000
G1 X96.138 Y23.819 E3.52128
G1 X97.307 Y24.017 E3.59614
G1 X98.463 Y24.290 E3.67114
G1 X99.597 Y24.634 E3.74599
G1 X100.709 Y25.048 E3.82089
G1 X101.400 Y25.347 E3.86847
G1 X102.464 Y25.874 E3.94342
G1 X103.492 Y26.466 E4.01835
G1 X104.480 Y27.122 E4.09322
G1 X105.426 Y27.838 E4.16815
G1 X106.325 Y28.612 E4.24307
G1 X107.174 Y29.442 E4.31798
G1 X107.968 Y30.322 E4.39289
G1 X108.706 Y31.251 E4.46781
G1 X109.384 Y32.225 E4.54273
G1 X110.078 Y33.375 E4.62753
G1 X174.078 Y147.435 E12.88626
G1 X174.551 Y148.350 E12.95127
G1 X174.735 Y148.742 E12.97865
G1 X175.194 Y149.836 E13.05356
G1 X175.582 Y150.956 E13.12840
G1 X175.793 Y151.679 E13.17599
G1 X175.901 Y152.100 E13.20341
G1 X176.146 Y153.260 E13.27827
G1 X176.264 Y154.004 E13.32585
G1 X176.389 Y155.184 E13.40079
G1 X176.440 Y156.369 E13.47568
G1 X176.440 Y156.803 E13.50305
G1 X176.416 Y157.556 E13.55064
G1 X176.318 Y158.738 E13.62552
G1 X176.264 Y159.168 E13.65289
G1 X176.065 Y160.336 E13.72775
G1 X175.793 Y161.493 E13.80275
G1 X175.582 Y162.216 E13.85033
G1 X175.194 Y163.336 E13.92517
G1 X174.735 Y164.430 E14.00008
G1 X174.551 Y164.822 E14.02746
G1 X174.209 Y165.494 E14.07504
G1 X173.616 Y166.522 E14.14996
G1 X172.961 Y167.510 E14.22484
G1 X172.706 Y167.860 E14.25219
G1 X172.245 Y168.456 E14.29977
G1 X171.470 Y169.355 E14.37469
G1 X170.641 Y170.203 E14.44960
G1 X170.325 Y170.500 E14.47695
G1 X169.427 Y171.274 E14.55186
G1 X168.831 Y171.736 E14.59944
G1 X167.857 Y172.414 E14.67437
G1 X166.844 Y173.029 E14.74924
G1 X165.793 Y173.580 E14.82417
G1 X164.709 Y174.064 E14.89912
G1 X164.307 Y174.223 E14.92645
G1 X163.187 Y174.612 E15.00130
G1 X162.042 Y174.930 E15.07630
G1 X161.307 Y175.094 E15.12388
G1 X160.389 Y175.254 E15.18272
G1 X159.708 Y175.348 E15.22610
G1 X158.958 Y175.419 E15.27368
G1 X157.773 Y175.469 E15.34857
G1 X42.497 Y176.361 E22.62801
G1 X41.473 Y176.334 E22.69263
G1 X40.292 Y176.236 E22.76752
G1 X39.862 Y176.181 E22.79489
G1 X38.693 Y175.983 E22.86975
G1 X37.537 Y175.710 E22.94474
G1 X36.402 Y175.366 E23.01959
G1 X35.291 Y174.952 E23.09450
G1 X34.207 Y174.468 E23.16945
G1 X33.156 Y173.917 E23.24437
G1 X32.143 Y173.302 E23.31925
G1 X31.169 Y172.624 E23.39418
G1 X30.240 Y171.886 E23.46909
G1 X29.359 Y171.091 E23.54401
G1 X28.530 Y170.243 E23.61892
G1 X27.755 Y169.344 E23.69383
G1 X27.294 Y168.749 E23.74141
G1 X26.615 Y167.775 E23.81634
G1 X26.000 Y166.761 E23.89122
G1 X25.449 Y165.710 E23.96614
G1 X25.265 Y165.318 E23.99352
G1 X24.806 Y164.224 E24.06842
G1 X24.418 Y163.104 E24.14327
G1 X24.099 Y161.960 E24.21827
G1 X23.854 Y160.800 E24.29313
G1 X23.682 Y159.626 E24.36807
G1 X23.584 Y158.444 E24.44295
G1 X23.560 Y157.257 E24.51790
G1 X23.584 Y156.504 E24.56549
G1 X23.682 Y155.322 E24.64037
G1 X23.854 Y154.148 E24.71531
G1 X24.099 Y152.988 E24.79017
G1 X24.418 Y151.844 E24.86517
G1 X24.806 Y150.724 E24.94001
G1 X25.293 Y149.567 E25.01930
G1 X76.375 Y34.687 E32.95827
G1 E30.95827 F2400.00000
G92 E0
G1 X52.425 Y160.717 F7800.000
G1 E2.00000 F2400.00000
G1 X52.202 Y161.338 E2.04163 F1800.000
G1 X51.940 Y161.943 E2.08327
G1 X51.640 Y162.530 E2.12490
G1 X51.305 Y163.098 E2.16654
G1 X50.934 Y163.643 E2.20817
G1 X50.530 Y164.164 E2.24980
G1 X50.092 Y164.661 E2.29161
G1 X49.530 Y165.211 E2.34132
G1 X49.133 Y165.561 E2.37469
G1 X48.612 Y165.965 E2.41633
G1 X48.067 Y166.336 E2.45796
G1 X47.500 Y166.671 E2.49959
G1 X46.912 Y166.971 E2.54123
G1 X46.307 Y167.232 E2.58286
G1 X45.687 Y167.456 E2.62450
G1 X45.053 Y167.640 E2.66613
G1 X44.410 Y167.783 E2.70776
G1 X43.759 Y167.887 E2.74940
G1 X43.102 Y167.949 E2.79103
G1 X42.443 Y167.969 E2.83266
G1 X41.784 Y167.949 E2.87430
G1 X41.128 Y167.887 E2.91593
G1 X40.477 Y167.783 E2.95757
G1 X39.833 Y167.640 E2.99920
G1 X39.200 Y167.456 E3.04083
G1 X38.577 Y167.231 E3.08264
G1 X37.858 Y166.911 E3.13235
G1 X37.387 Y166.671 E3.16572
G1 X36.820 Y166.336 E3.20736
G1 X36.274 Y165.965 E3.24899
G1 X35.753 Y165.561 E3.29062
G1 X35.259 Y165.125 E3.33226
G1 X34.793 Y164.659 E3.37389
G1 X34.357 Y164.164 E3.41552
G1 X33.952 Y163.643 E3.45716
G1 X33.582 Y163.098 E3.49879
G1 X33.246 Y162.530 E3.54043
G1 X32.947 Y161.943 E3.58206
G1 X32.685 Y161.338 E3.62369
G1 X32.462 Y160.717 E3.66533
G1 X32.278 Y160.084 E3.70696
G1 X32.134 Y159.441 E3.74860
G1 X32.031 Y158.789 E3.79023
G1 X31.969 Y158.133 E3.83186
G1 X31.948 Y157.474 E3.87350
G1 X31.969 Y156.815 E3.91513
G1 X32.031 Y156.159 E3.95676
G1 X32.134 Y155.507 E3.99840
G1 X32.278 Y154.864 E4.04003
G1 X32.462 Y154.231 E4.08167
G1 X32.685 Y153.611 E4.12330
G1 X32.947 Y153.005 E4.16493
G1 X33.246 Y152.418 E4.20657
G1 X33.582 Y151.850 E4.24820
G1 X33.952 Y151.305 E4.28983
G1 X34.357 Y150.784 E4.33147
G1 X34.793 Y150.290 E4.37310
G1 X35.259 Y149.823 E4.41474
G1 X35.753 Y149.387 E4.45637
G1 X36.274 Y148.983 E4.49800
G1 X36.820 Y148.613 E4.53964
G1 X37.387 Y148.277 E4.58127
G1 X37.975 Y147.978 E4.62291
G1 X38.580 Y147.716 E4.66454
G1 X39.200 Y147.492 E4.70617
G1 X39.833 Y147.309 E4.74781
G1 X40.477 Y147.165 E4.78944
G1 X41.131 Y147.061 E4.83124
G1 X41.915 Y146.995 E4.88096
G1 X42.443 Y146.979 E4.91433 F1800.000
G1 X43.102 Y146.999 E4.95596
G1 X43.759 Y147.062 E4.99760
G1 X44.413 Y147.165 E5.03940
G1 X45.179 Y147.345 E5.08911
G1 X45.687 Y147.492 E5.12249
G1 X46.307 Y147.716 E5.16412
G1 X46.912 Y147.978 E5.20575
G1 X47.500 Y148.277 E5.24739
G1 X48.067 Y148.613 E5.28902
G1 X48.612 Y148.983 E5.33065
G1 X49.133 Y149.387 E5.37229
G1 X49.628 Y149.823 E5.41392
G1 X50.094 Y150.290 E5.45556
G1 X50.530 Y150.784 E5.49719
G1 X50.934 Y151.305 E5.53882
G1 X51.305 Y151.850 E5.58046
G1 X51.640 Y152.418 E5.62209
G1 X51.940 Y153.005 E5.66373
G1 X52.202 Y153.611 E5.70536
G1 X52.425 Y154.231 E5.74699
G1 X52.609 Y154.864 E5.78863
G1 X52.753 Y155.507 E5.83026
G1 X52.856 Y156.159 E5.87189
G1 X52.918 Y156.815 E5.91353
G1 X52.939 Y157.474 E5.95516
G1 X52.918 Y158.133 E5.99680
G1 X52.856 Y158.789 E6.03843
G1 X52.753 Y159.441 E6.08006
G1 X52.609 Y160.084 E6.12170
G1 X52.446 Y160.645 E6.15860
G1 X52.756 Y161.092 F7800.000
G1 X53.364 Y161.055 F7800.000
G1 X53.130 Y161.705 E6.20221 F1800.000
G1 X52.843 Y162.368 E6.24781
G1 X52.515 Y163.011 E6.29340
G1 X52.148 Y163.633 E6.33900
G1 X51.742 Y164.230 E6.38459
G1 X51.299 Y164.801 E6.43019
G1 X50.822 Y165.342 E6.47578
G1 X50.311 Y165.853 E6.52138
G1 X49.770 Y166.330 E6.56697
G1 X49.199 Y166.773 E6.61257
G1 X48.602 Y167.179 E6.65816
G1 X47.981 Y167.546 E6.70376
G1 X47.337 Y167.874 E6.74935
G1 X46.675 Y168.161 E6.79494
G1 X45.995 Y168.405 E6.84054
G1 X45.302 Y168.607 E6.88614
G1 X44.597 Y168.764 E6.93173
G1 X43.884 Y168.877 E6.97733
G1 X43.165 Y168.945 E7.02292
G1 X42.443 Y168.968 E7.06851
G1 X41.722 Y168.945 E7.11411
G1 X41.003 Y168.877 E7.15970
G1 X40.290 Y168.764 E7.20530
G1 X39.585 Y168.607 E7.25089
G1 X38.892 Y168.405 E7.29649
G1 X38.212 Y168.161 E7.34209
G1 X37.550 Y167.874 E7.38768
G1 X36.906 Y167.546 E7.43327
G1 X36.285 Y167.179 E7.47887
G1 X35.687 Y166.773 E7.52446
G1 X35.117 Y166.330 E7.57006
G1 X34.578 Y165.855 E7.61540
G1 X33.900 Y165.155 E7.67700
G1 X33.587 Y164.801 E7.70682
G1 X33.145 Y164.230 E7.75241
G1 X32.739 Y163.633 E7.79801
G1 X32.371 Y163.011 E7.84361
G1 X32.043 Y162.368 E7.88920
G1 X31.757 Y161.705 E7.93479
G1 X31.512 Y161.026 E7.98039
G1 X31.311 Y160.332 E8.02598
G1 X31.153 Y159.628 E8.07158
G1 X31.040 Y158.915 E8.11717
G1 X30.972 Y158.196 E8.16277
G1 X30.949 Y157.474 E8.20836
G1 X30.972 Y156.752 E8.25396
G1 X31.040 Y156.034 E8.29955
G1 X31.153 Y155.320 E8.34515
G1 X31.311 Y154.616 E8.39074
G1 X31.512 Y153.922 E8.43634
G1 X31.757 Y153.243 E8.48193
G1 X32.043 Y152.580 E8.52753
G1 X32.371 Y151.937 E8.57312
G1 X32.739 Y151.315 E8.61872
G1 X33.145 Y150.718 E8.66431
G1 X33.587 Y150.148 E8.70991
G1 X34.065 Y149.606 E8.75550
G1 X34.575 Y149.095 E8.80110
G1 X35.117 Y148.618 E8.84669
G1 X35.687 Y148.175 E8.89228
G1 X36.285 Y147.770 E8.93788
G1 X36.906 Y147.402 E8.98348
G1 X37.550 Y147.074 E9.02907
G1 X38.212 Y146.787 E9.07466
G1 X38.892 Y146.543 E9.12026
G1 X39.585 Y146.341 E9.16586
G1 X40.290 Y146.184 E9.21145
G1 X41.003 Y146.071 E9.25704
G1 X41.722 Y146.003 E9.30264
G1 X42.443 Y145.980 E9.34823
G1 X42.915 Y145.995 E9.37806
G1 X43.888 Y146.072 E9.43965 F1800.000
G1 X44.597 Y146.184 E9.48500
G1 X45.302 Y146.341 E9.53059
G1 X45.995 Y146.543 E9.57618
G1 X46.675 Y146.787 E9.62178
G1 X47.337 Y147.074 E9.66737
G1 X47.981 Y147.402 E9.71297
G1 X48.602 Y147.770 E9.75856
G1 X49.199 Y148.175 E9.80416
G1 X49.770 Y148.618 E9.84975
G1 X50.311 Y149.095 E9.89535
G1 X50.822 Y149.606 E9.94094
G1 X51.299 Y150.148 E9.98654
G1 X51.742 Y150.718 E10.03213
G1 X52.148 Y151.315 E10.07773
G1 X52.515 Y151.937 E10.12332
G1 X52.843 Y152.580 E10.16892
G1 X53.130 Y153.243 E10.21451
G1 X53.375 Y153.922 E10.26011
G1 X53.576 Y154.616 E10.30570
G1 X53.734 Y155.320 E10.35130
G1 X53.847 Y156.034 E10.39689
G1 X53.914 Y156.752 E10.44249
G1 X53.937 Y157.474 E10.48808
G1 X53.914 Y158.196 E10.53368
G1 X53.847 Y158.915 E10.57927
G1 X53.734 Y159.628 E10.62487
G1 X53.576 Y160.332 E10.67046
G1 X53.387 Y160.984 E10.71330
G1 X52.874 Y161.154 F7800.000
G1 X52.894 Y160.886 F7800.000
G1 X52.666 Y161.521 E10.75593 F1800.000
G1 X52.392 Y162.154 E10.79943
G1 X52.078 Y162.771 E10.84315
G1 X51.726 Y163.365 E10.88677
G1 X51.339 Y163.935 E10.93028
G1 X50.915 Y164.482 E10.97399
G1 X50.453 Y165.006 E11.01807
G1 X49.967 Y165.486 E11.06122
G1 X49.452 Y165.946 E11.10482
G1 X48.904 Y166.370 E11.14854
G1 X48.335 Y166.757 E11.19205
G1 X47.741 Y167.108 E11.23556
G1 X47.125 Y167.422 E11.27928
G1 X46.489 Y167.697 E11.32300
G1 X45.841 Y167.931 E11.36651
G1 X45.179 Y168.123 E11.41002
G1 X44.502 Y168.274 E11.45384
G1 X43.821 Y168.382 E11.49735
G1 X43.135 Y168.447 E11.54086
G1 X42.443 Y168.469 E11.58458
G1 X41.751 Y168.447 E11.62830
G1 X41.065 Y168.382 E11.67181
G1 X40.385 Y168.274 E11.71532
G1 X39.708 Y168.123 E11.75914
G1 X39.046 Y167.931 E11.80265
G1 X38.396 Y167.697 E11.84627
G1 X37.764 Y167.419 E11.88987
G1 X37.145 Y167.108 E11.93359
G1 X36.552 Y166.757 E11.97710
G1 X35.982 Y166.370 E12.02061
G1 X35.435 Y165.946 E12.06432
G1 X34.916 Y165.487 E12.10804
G1 X34.432 Y164.995 E12.15163
G1 X33.972 Y164.482 E12.19515
G1 X33.548 Y163.935 E12.23886
G1 X33.160 Y163.365 E12.28237
G1 X32.809 Y162.771 E12.32599
G1 X32.494 Y162.154 E12.36971
G1 X32.221 Y161.521 E12.41321
G1 X31.987 Y160.873 E12.45673
G1 X31.794 Y160.207 E12.50055
G1 X31.644 Y159.534 E12.54406
G1 X31.536 Y158.854 E12.58757
G1 X31.470 Y158.164 E12.63129
G1 X31.449 Y157.472 E12.67501
G1 X31.470 Y156.784 E12.71852 F1800.000
G1 X31.535 Y156.096 E12.76213
G1 X31.644 Y155.414 E12.80575
G1 X31.794 Y154.741 E12.84925
G1 X31.987 Y154.075 E12.89308
G1 X32.221 Y153.427 E12.93659
G1 X32.495 Y152.793 E12.98020
G1 X32.809 Y152.177 E13.02381
G1 X33.159 Y151.584 E13.06733
G1 X33.550 Y151.010 E13.11115
G1 X33.972 Y150.466 E13.15466
G1 X34.429 Y149.948 E13.19827
G1 X34.917 Y149.459 E13.24189
G1 X35.434 Y149.004 E13.28540
G1 X35.982 Y148.578 E13.32922
G1 X36.552 Y148.191 E13.37273
G1 X37.148 Y147.839 E13.41645
G1 X37.762 Y147.526 E13.45996
G1 X38.396 Y147.252 E13.50357
G1 X39.046 Y147.018 E13.54719
G1 X39.708 Y146.825 E13.59070
G1 X40.383 Y146.674 E13.63441
G1 X41.065 Y146.566 E13.67803
G1 X41.753 Y146.505 E13.72164
G1 X42.445 Y146.480 E13.76535
G1 X43.132 Y146.507 E13.80876
G1 X43.829 Y146.567 E13.85295
G1 X44.507 Y146.675 E13.89628
G1 X45.177 Y146.828 E13.93967
G1 X45.841 Y147.018 E13.98328
G1 X46.489 Y147.251 E14.02679
G1 X47.126 Y147.527 E14.07062
G1 X47.740 Y147.839 E14.11412
G1 X48.335 Y148.191 E14.15774
G1 X48.906 Y148.579 E14.20136
G1 X49.452 Y149.003 E14.24497
G1 X49.970 Y149.459 E14.28858
G1 X50.457 Y149.947 E14.33209
G1 X50.916 Y150.467 E14.37592
G1 X51.338 Y151.012 E14.41942
G1 X51.726 Y151.583 E14.46304
G1 X52.078 Y152.177 E14.50666
G1 X52.391 Y152.791 E14.55016
G1 X52.666 Y153.428 E14.59399
G1 X52.900 Y154.077 E14.63750
G1 X53.093 Y154.740 E14.68111
G1 X53.243 Y155.414 E14.72472
G1 X53.351 Y156.096 E14.76834
G1 X53.416 Y156.784 E14.81195
G1 X53.438 Y157.472 E14.85546
G1 X53.416 Y158.166 E14.89929
G1 X53.351 Y158.852 E14.94280
G1 X53.243 Y159.534 E14.98641
G1 X53.093 Y160.208 E15.03002
G1 X52.916 Y160.815 E15.06989
G1 E13.06989 F2400.00000
G92 E0
G1 X55.413 Y158.274 F7800.000
G1 X99.213 Y113.881 F7800.000
G1 X117.826 Y143.692 F7800.000
G1 X124.819 Y152.466 F7800.000
G1 X128.156 Y156.054 F7800.000
G1 X129.188 Y157.086 F7800.000
G1 X129.972 Y157.846 F7800.000
G1 X144.587 Y157.386 F7800.000
G1 X167.538 Y159.829 F7800.000
G1 E2.00000 F2400.00000
G1 X167.315 Y160.450 E2.04163 F1800.000
G1 X167.053 Y161.055 E2.08327
G1 X166.754 Y161.642 E2.12490
G1 X166.418 Y162.210 E2.16654
G1 X166.048 Y162.755 E2.20817
G1 X165.643 Y163.276 E2.24980
G1 X165.206 Y163.773 E2.29161
G1 X164.643 Y164.323 E2.34132
G1 X164.247 Y164.673 E2.37469
G1 X163.726 Y165.077 E2.41633
G1 X163.180 Y165.447 E2.45796
G1 X162.613 Y165.783 E2.49959
G1 X162.025 Y166.082 E2.54123
G1 X161.420 Y166.344 E2.58286
G1 X160.800 Y166.568 E2.62450
G1 X160.167 Y166.752 E2.66613
G1 X159.523 Y166.895 E2.70776
G1 X158.872 Y166.999 E2.74940
G1 X158.216 Y167.061 E2.79103
G1 X157.557 Y167.081 E2.83266
G1 X156.898 Y167.061 E2.87430
G1 X156.241 Y166.999 E2.91593
G1 X155.590 Y166.895 E2.95757
G1 X154.947 Y166.752 E2.99920
G1 X154.313 Y166.568 E3.04083
G1 X153.691 Y166.343 E3.08264
G1 X152.971 Y166.023 E3.13235
G1 X152.500 Y165.783 E3.16572
G1 X151.933 Y165.447 E3.20736
G1 X151.388 Y165.077 E3.24899
G1 X150.867 Y164.673 E3.29062
G1 X150.372 Y164.237 E3.33226
G1 X149.906 Y163.771 E3.37389
G1 X149.470 Y163.276 E3.41552
G1 X149.066 Y162.755 E3.45716
G1 X148.695 Y162.210 E3.49879
G1 X148.360 Y161.642 E3.54043
G1 X148.060 Y161.055 E3.58206
G1 X147.798 Y160.450 E3.62369
G1 X147.575 Y159.829 E3.66533
G1 X147.391 Y159.196 E3.70696
G1 X147.247 Y158.553 E3.74860
G1 X147.144 Y157.901 E3.79023
G1 X147.082 Y157.245 E3.83186
G1 X147.061 Y156.586 E3.87350
G1 X147.082 Y155.927 E3.91513
G1 X147.144 Y155.271 E3.95676
G1 X147.247 Y154.619 E3.99840
G1 X147.391 Y153.976 E4.04003
G1 X147.575 Y153.343 E4.08167
G1 X147.798 Y152.722 E4.12330
G1 X148.060 Y152.117 E4.16493
G1 X148.360 Y151.530 E4.20657
G1 X148.695 Y150.962 E4.24820
G1 X149.066 Y150.417 E4.28983
G1 X149.470 Y149.896 E4.33147
G1 X149.906 Y149.401 E4.37310
G1 X150.372 Y148.935 E4.41474
G1 X150.867 Y148.499 E4.45637
G1 X151.388 Y148.095 E4.49800
G1 X151.933 Y147.725 E4.53964
G1 X152.500 Y147.389 E4.58127
G1 X153.088 Y147.090 E4.62291
G1 X153.693 Y146.828 E4.66454
G1 X154.313 Y146.604 E4.70617
G1 X154.947 Y146.420 E4.74781
G1 X155.590 Y146.277 E4.78944
G1 X156.244 Y146.173 E4.83124
G1 X157.028 Y146.107 E4.88096
G1 X157.557 Y146.091 E4.91433 F1800.000
G1 X158.216 Y146.111 E4.95596
G1 X158.872 Y146.173 E4.99760
G1 X159.526 Y146.277 E5.03940
G1 X160.292 Y146.457 E5.08911
G1 X160.800 Y146.604 E5.12249
G1 X161.420 Y146.828 E5.16412
G1 X162.025 Y147.090 E5.20575
G1 X162.613 Y147.389 E5.24739
G1 X163.180 Y147.725 E5.28902
G1 X163.726 Y148.095 E5.33065
G1 X164.247 Y148.499 E5.37229
G1 X164.741 Y148.935 E5.41392
