; generated by Slic3r 1.2.9 on 2017-02-08 at 23:52:27

; external perimeters extrusion width = 0.50mm
; perimeters extrusion width = 0.72mm
; infill extrusion width = 0.72mm
; solid infill extrusion width = 0.72mm
; top infill extrusion width = 0.72mm

M107
M104 S270 ; set temperature
G28 ; home all axes
G1 Z5 F5000 ; lift nozzle

M109 S270 ; wait for temperature to be reached
G21 ; set units to millimeters
G90 ; use absolute coordinates
M82 ; use absolute distances for extrusion
G92 E0
G1 Z0.500 F7800.000
G1 E-2.00000 F2400.00000
G92 E0
G1 X56.661 Y56.661 F7800.000
G1 E2.00000 F2400.00000
G1 X57.243 Y56.098 E2.05113 F1800.000
G1 X57.808 Y55.600 E2.09871
G1 X58.737 Y54.862 E2.17362
G1 X59.088 Y54.607 E2.20098
G1 X60.076 Y53.952 E2.27585
G1 X60.725 Y53.569 E2.32343
G1 X61.776 Y53.018 E2.39836
G1 X62.168 Y52.833 E2.42574
G1 X62.859 Y52.534 E2.47331
G1 X63.971 Y52.119 E2.54822
G1 X65.105 Y51.776 E2.62307
G1 X65.526 Y51.668 E2.65050
G1 X66.261 Y51.503 E2.69808
G1 X67.430 Y51.304 E2.77293
G1 X68.610 Y51.179 E2.84787
G1 X70.012 Y51.125 E2.93645
G1 X130.205 Y51.128 E6.73738
G1 X130.958 Y51.152 E6.78496 F1800.000
G1 X132.140 Y51.250 E6.85985
G1 X133.314 Y51.422 E6.93478
G1 X134.474 Y51.668 E7.00964
G1 X134.895 Y51.776 E7.03707
G1 X136.029 Y52.119 E7.11192
G1 X136.738 Y52.375 E7.15950
G1 X137.832 Y52.833 E7.23440
G1 X138.224 Y53.018 E7.26178
G1 X139.275 Y53.569 E7.33671
G1 X140.289 Y54.184 E7.41159
G1 X140.912 Y54.607 E7.45916
G1 X141.263 Y54.862 E7.48652
G1 X142.192 Y55.600 E7.56143
G1 X142.757 Y56.098 E7.60901
G1 X143.605 Y56.927 E7.68393
G1 X143.902 Y57.243 E7.71127
G1 X144.676 Y58.142 E7.78618
G1 X145.138 Y58.737 E7.83376
G1 X145.816 Y59.711 E7.90869
G1 X146.431 Y60.725 E7.98357
G1 X146.640 Y61.104 E8.01092
G1 X146.982 Y61.776 E8.05850
G1 X147.466 Y62.859 E8.13345
G1 X147.625 Y63.262 E8.16078
G1 X148.014 Y64.382 E8.23563
G1 X148.224 Y65.105 E8.28321
G1 X148.497 Y66.261 E8.35821
G1 X148.696 Y67.430 E8.43307
G1 X148.750 Y67.860 E8.46043
G1 X148.848 Y69.042 E8.53532
G1 X148.875 Y70.012 E8.59659
G1 X148.875 Y129.988 E12.38384
G1 X148.848 Y130.958 E12.44511
G1 X148.750 Y132.140 E12.52000
G1 X148.696 Y132.570 E12.54736
G1 X148.497 Y133.739 E12.62222
G1 X148.224 Y134.895 E12.69722
G1 X148.014 Y135.618 E12.74480
G1 X147.625 Y136.738 E12.81964
G1 X147.167 Y137.832 E12.89455
G1 X146.982 Y138.224 E12.92193
G1 X146.431 Y139.275 E12.99685
G1 X145.816 Y140.289 E13.07173
G1 X145.393 Y140.912 E13.11931
G1 X144.676 Y141.858 E13.19423
G1 X143.902 Y142.757 E13.26915
G1 X143.605 Y143.073 E13.29649
G1 X142.757 Y143.902 E13.37141
G1 X141.858 Y144.676 E13.44632
G1 X141.263 Y145.138 E13.49390
G1 X140.289 Y145.816 E13.56883
G1 X139.275 Y146.431 E13.64370
G1 X138.896 Y146.640 E13.67106
G1 X137.832 Y147.167 E13.74601
G1 X137.141 Y147.466 E13.79359
G1 X136.029 Y147.881 E13.86849
G1 X134.895 Y148.224 E13.94334
G1 X134.474 Y148.332 E13.97077
G1 X133.739 Y148.497 E14.01835
G1 X132.570 Y148.696 E14.09321
G1 X131.390 Y148.821 E14.16814
G1 X129.988 Y148.875 E14.25672
G1 X70.012 Y148.875 E18.04396
G1 X68.610 Y148.821 E18.13254
G1 X67.860 Y148.750 E18.18012
G1 X66.686 Y148.578 E18.25505
G1 X65.526 Y148.332 E18.32991
G1 X65.105 Y148.224 E18.35734
G1 X63.971 Y147.881 E18.43219
G1 X62.859 Y147.466 E18.50710
G1 X62.168 Y147.167 E18.55467
G1 X61.104 Y146.640 E18.62962
G1 X60.076 Y146.048 E18.70455
G1 X59.088 Y145.393 E18.77942
G1 X58.737 Y145.138 E18.80678
G1 X57.808 Y144.400 E18.88169
G1 X57.243 Y143.902 E18.92927
G1 X56.395 Y143.073 E19.00419
G1 X55.930 Y142.567 E19.04755
G1 X55.324 Y141.858 E19.10644
G1 X54.607 Y140.912 E19.18137
G1 X54.184 Y140.289 E19.22895
G1 X53.569 Y139.275 E19.30382
G1 X53.018 Y138.224 E19.37875
G1 X52.833 Y137.832 E19.40613
G1 X52.375 Y136.738 E19.48103
G1 X52.119 Y136.029 E19.52861
G1 X51.776 Y134.895 E19.60346
G1 X51.503 Y133.739 E19.67846
G1 X51.304 Y132.570 E19.75332
G1 X51.250 Y132.140 E19.78068
G1 X51.152 Y130.958 E19.85557
G1 X51.125 Y129.988 E19.91684
G1 X51.125 Y70.012 E23.70408
G1 X51.152 Y69.042 E23.76535
G1 X51.250 Y67.860 E23.84024
G1 X51.304 Y67.430 E23.86761
G1 X51.503 Y66.261 E23.94247
G1 X51.668 Y65.526 E23.99005
G1 X51.986 Y64.382 E24.06505
G1 X52.375 Y63.262 E24.13989
G1 X52.534 Y62.859 E24.16723
G1 X52.833 Y62.168 E24.21481
G1 X53.360 Y61.104 E24.28976
G1 X53.569 Y60.725 E24.31711
G1 X54.184 Y59.711 E24.39199
G1 X54.862 Y58.737 E24.46691
G1 X55.324 Y58.142 E24.51449
G1 X56.098 Y57.243 E24.58941
G1 X56.608 Y56.714 E24.63580
G1 E22.63580 F2400.00000
G92 E0
G1 X107.649 Y107.187 F7800.000
G1 E2.00000 F2400.00000
G1 X107.086 Y107.737 E2.04971 F1800.000
G1 X106.690 Y108.087 E2.08309
G1 X106.169 Y108.491 E2.12472
G1 X105.624 Y108.861 E2.16635
G1 X105.056 Y109.197 E2.20799
G1 X104.469 Y109.496 E2.24962
G1 X103.864 Y109.758 E2.29126
G1 X103.243 Y109.982 E2.33289
G1 X102.610 Y110.166 E2.37452
G1 X101.967 Y110.309 E2.41616
G1 X101.315 Y110.413 E2.45779
G1 X100.659 Y110.475 E2.49942
G1 X100.000 Y110.495 E2.54106
G1 X99.341 Y110.475 E2.58269
G1 X98.685 Y110.413 E2.62433
G1 X98.033 Y110.309 E2.66596
G1 X97.390 Y110.166 E2.70759
G1 X96.757 Y109.982 E2.74923
G1 X96.134 Y109.757 E2.79103
G1 X95.415 Y109.437 E2.84074
G1 X94.944 Y109.197 E2.87412
G1 X94.376 Y108.861 E2.91575
G1 X93.831 Y108.491 E2.95738
G1 X93.310 Y108.087 E2.99902
G1 X92.815 Y107.651 E3.04065
G1 X92.349 Y107.185 E3.08229
G1 X91.913 Y106.690 E3.12392
G1 X91.509 Y106.169 E3.16555
G1 X91.139 Y105.624 E3.20719
G1 X90.803 Y105.056 E3.24882
G1 X90.504 Y104.469 E3.29045
G1 X90.242 Y103.864 E3.33209
G1 X90.018 Y103.243 E3.37372
G1 X89.834 Y102.610 E3.41536
G1 X89.691 Y101.967 E3.45699
G1 X89.587 Y101.315 E3.49862
G1 X89.525 Y100.659 E3.54026
G1 X89.505 Y100.000 E3.58189
G1 X89.525 Y99.341 E3.62353
G1 X89.587 Y98.685 E3.66516
G1 X89.691 Y98.033 E3.70679
G1 X89.834 Y97.390 E3.74843
G1 X90.018 Y96.757 E3.79006
G1 X90.242 Y96.136 E3.83169
G1 X90.504 Y95.531 E3.87333
G1 X90.803 Y94.944 E3.91496
G1 X91.139 Y94.376 E3.95660
G1 X91.509 Y93.831 E3.99823
G1 X91.913 Y93.310 E4.03986
G1 X92.349 Y92.815 E4.08150
G1 X92.815 Y92.349 E4.12313
G1 X93.310 Y91.913 E4.16477
G1 X93.831 Y91.509 E4.20640
G1 X94.376 Y91.139 E4.24803
G1 X94.944 Y90.803 E4.28967
G1 X95.531 Y90.504 E4.33130
G1 X96.136 Y90.242 E4.37293
G1 X96.757 Y90.018 E4.41457
G1 X97.390 Y89.834 E4.45620
G1 X98.033 Y89.691 E4.49784
G1 X98.687 Y89.587 E4.53964
G1 X99.472 Y89.521 E4.58935
G1 X100.000 Y89.505 E4.62272 F1800.000
G1 X100.659 Y89.525 E4.66436
G1 X101.315 Y89.587 E4.70599
G1 X101.969 Y89.691 E4.74779
G1 X102.736 Y89.871 E4.79751
G1 X103.243 Y90.018 E4.83088
G1 X103.864 Y90.242 E4.87251
G1 X104.469 Y90.504 E4.91415
G1 X105.056 Y90.803 E4.95578
G1 X105.624 Y91.139 E4.99742
G1 X106.169 Y91.509 E5.03905
G1 X106.690 Y91.913 E5.08068
G1 X107.185 Y92.349 E5.12232
G1 X107.651 Y92.815 E5.16395
G1 X108.087 Y93.310 E5.20558
G1 X108.491 Y93.831 E5.24722
G1 X108.861 Y94.376 E5.28885
G1 X109.197 Y94.944 E5.33049
G1 X109.496 Y95.531 E5.37212
G1 X109.758 Y96.136 E5.41375
G1 X109.982 Y96.757 E5.45539
G1 X110.166 Y97.390 E5.49702
G1 X110.309 Y98.033 E5.53866
G1 X110.413 Y98.685 E5.58029
G1 X110.475 Y99.341 E5.62192
G1 X110.495 Y100.000 E5.66356
G1 X110.475 Y100.659 E5.70519
G1 X110.413 Y101.315 E5.74682
G1 X110.309 Y101.967 E5.78846
G1 X110.166 Y102.610 E5.83009
G1 X109.982 Y103.243 E5.87173
G1 X109.758 Y103.864 E5.91336
G1 X109.496 Y104.469 E5.95499
G1 X109.197 Y105.056 E5.99663
G1 X108.861 Y105.624 E6.03826
G1 X108.491 Y106.169 E6.07990
G1 X108.087 Y106.690 E6.12153
G1 X107.699 Y107.130 E6.15860
G1 X107.785 Y107.668 F7800.000
G1 X108.355 Y107.892 F7800.000
G1 X107.868 Y108.379 E6.20204 F1800.000
G1 X107.326 Y108.856 E6.24764
G1 X106.756 Y109.299 E6.29323
G1 X106.159 Y109.705 E6.33883
G1 X105.537 Y110.072 E6.38442
G1 X104.894 Y110.400 E6.43002
G1 X104.231 Y110.687 E6.47561
G1 X103.552 Y110.931 E6.52121
G1 X102.858 Y111.133 E6.56680
G1 X102.154 Y111.290 E6.61239
G1 X101.441 Y111.403 E6.65799
G1 X100.722 Y111.471 E6.70359
G1 X100.000 Y111.494 E6.74918
G1 X99.278 Y111.471 E6.79477
G1 X98.559 Y111.403 E6.84037
G1 X97.846 Y111.290 E6.88597
G1 X97.142 Y111.133 E6.93156
G1 X96.448 Y110.931 E6.97715
G1 X95.769 Y110.687 E7.02275
G1 X95.106 Y110.400 E7.06834
G1 X94.463 Y110.072 E7.11394
G1 X93.841 Y109.705 E7.15953
G1 X93.244 Y109.299 E7.20513
G1 X92.674 Y108.856 E7.25072
G1 X92.135 Y108.381 E7.29607
G1 X91.456 Y107.681 E7.35766
G1 X91.144 Y107.326 E7.38748
G1 X90.701 Y106.756 E7.43308
G1 X90.295 Y106.159 E7.47867
G1 X89.928 Y105.537 E7.52427
G1 X89.600 Y104.894 E7.56986
G1 X89.313 Y104.231 E7.61546
G1 X89.069 Y103.552 E7.66105
G1 X88.867 Y102.858 E7.70665
G1 X88.710 Y102.154 E7.75224
G1 X88.597 Y101.441 E7.79784
G1 X88.529 Y100.722 E7.84343
G1 X88.506 Y100.000 E7.88903
G1 X88.529 Y99.278 E7.93462
G1 X88.597 Y98.559 E7.98022
G1 X88.710 Y97.846 E8.02581
G1 X88.867 Y97.142 E8.07141
G1 X89.069 Y96.448 E8.11700
G1 X89.313 Y95.769 E8.16260
G1 X89.600 Y95.106 E8.20819
G1 X89.928 Y94.463 E8.25378
G1 X90.295 Y93.841 E8.29938
G1 X90.701 Y93.244 E8.34498
G1 X91.144 Y92.674 E8.39057
G1 X91.621 Y92.132 E8.43617
G1 X92.132 Y91.621 E8.48176
G1 X92.674 Y91.144 E8.52736
G1 X93.244 Y90.701 E8.57295
G1 X93.841 Y90.295 E8.61854
G1 X94.463 Y89.928 E8.66414
G1 X95.106 Y89.600 E8.70974
G1 X95.769 Y89.313 E8.75533
G1 X96.448 Y89.069 E8.80092
G1 X97.142 Y88.867 E8.84652
G1 X97.846 Y88.710 E8.89211
G1 X98.559 Y88.597 E8.93771
G1 X99.278 Y88.529 E8.98330
G1 X100.000 Y88.506 E9.02890
G1 X100.472 Y88.521 E9.05872
G1 X101.444 Y88.597 E9.12031 F1800.000
G1 X102.154 Y88.710 E9.16566
G1 X102.858 Y88.867 E9.21125
G1 X103.552 Y89.069 E9.25685
G1 X104.231 Y89.313 E9.30245
G1 X104.894 Y89.600 E9.34804
G1 X105.537 Y89.928 E9.39363
G1 X106.159 Y90.295 E9.43923
G1 X106.756 Y90.701 E9.48482
G1 X107.326 Y91.144 E9.53042
G1 X107.868 Y91.621 E9.57601
G1 X108.379 Y92.132 E9.62161
G1 X108.856 Y92.674 E9.66720
G1 X109.299 Y93.244 E9.71280
G1 X109.705 Y93.841 E9.75839
G1 X110.072 Y94.463 E9.80399
G1 X110.400 Y95.106 E9.84958
G1 X110.687 Y95.769 E9.89518
G1 X110.931 Y96.448 E9.94077
G1 X111.133 Y97.142 E9.98637
G1 X111.290 Y97.846 E10.03196
G1 X111.403 Y98.559 E10.07756
G1 X111.471 Y99.278 E10.12315
G1 X111.494 Y100.000 E10.16875
G1 X111.471 Y100.722 E10.21434
G1 X111.403 Y101.441 E10.25994
G1 X111.290 Y102.154 E10.30553
G1 X111.133 Y102.858 E10.35113
G1 X110.931 Y103.552 E10.39672
G1 X110.687 Y104.231 E10.44232
G1 X110.400 Y104.894 E10.48791
G1 X110.072 Y105.537 E10.53350
G1 X109.705 Y106.159 E10.57910
G1 X109.299 Y106.756 E10.62470
G1 X108.856 Y107.326 E10.67029
G1 X108.406 Y107.837 E10.71330
G1 X107.869 Y107.772 F7800.000
G1 X108.004 Y107.537 F7800.000
G1 X107.524 Y108.012 E10.75591 F1800.000
G1 X107.009 Y108.470 E10.79942
G1 X106.464 Y108.894 E10.84303
G1 X105.891 Y109.283 E10.88675
G1 X105.297 Y109.635 E10.93037
G1 X104.681 Y109.948 E10.97398
G1 X104.046 Y110.223 E11.01770
G1 X103.397 Y110.456 E11.06121
G1 X102.736 Y110.649 E11.10472
G1 X102.062 Y110.799 E11.14833
G1 X101.378 Y110.908 E11.19205
G1 X100.689 Y110.973 E11.23577
G1 X99.998 Y110.995 E11.27938
G1 X99.310 Y110.973 E11.32289
G1 X98.624 Y110.908 E11.36640
G1 X97.940 Y110.800 E11.41012
G1 X97.266 Y110.649 E11.45373
G1 X96.603 Y110.456 E11.49735
G1 X95.949 Y110.221 E11.54118
G1 X95.320 Y109.945 E11.58457
G1 X94.705 Y109.635 E11.62808
G1 X94.110 Y109.284 E11.67169
G1 X93.538 Y108.895 E11.71541
G1 X92.992 Y108.471 E11.75902
G1 X92.475 Y108.016 E11.80253
G1 X91.823 Y107.342 E11.86175
G1 X91.529 Y107.008 E11.88984
G1 X91.105 Y106.462 E11.93345
G1 X90.718 Y105.893 E11.97697
G1 X90.365 Y105.297 E12.02069
G1 X90.051 Y104.680 E12.06440
G1 X89.777 Y104.046 E12.10802
G1 X89.544 Y103.397 E12.15153
G1 X89.351 Y102.736 E12.19504
G1 X89.200 Y102.060 E12.23875
G1 X89.092 Y101.378 E12.28237
G1 X89.027 Y100.690 E12.32598
G1 X89.005 Y99.998 E12.36970
G1 X89.027 Y99.310 E12.41321 F1800.000
G1 X89.092 Y98.622 E12.45683
G1 X89.200 Y97.940 E12.50044
G1 X89.351 Y97.266 E12.54405
G1 X89.544 Y96.603 E12.58767
G1 X89.778 Y95.953 E12.63129
G1 X90.052 Y95.319 E12.67490
G1 X90.365 Y94.703 E12.71851
G1 X90.717 Y94.109 E12.76213
G1 X91.105 Y93.538 E12.80574
G1 X91.529 Y92.992 E12.84936
G1 X91.985 Y92.474 E12.89297
G1 X92.474 Y91.985 E12.93658
G1 X92.992 Y91.529 E12.98020
G1 X93.538 Y91.105 E13.02381
G1 X94.107 Y90.718 E13.06732
G1 X94.703 Y90.365 E13.11104
G1 X95.319 Y90.052 E13.15466
G1 X95.953 Y89.778 E13.19827
G1 X96.601 Y89.544 E13.24178
G1 X97.266 Y89.351 E13.28550
G1 X97.938 Y89.201 E13.32901
G1 X98.629 Y89.091 E13.37318
G1 X99.310 Y89.031 E13.41634
G1 X100.000 Y89.005 E13.45994
G1 X100.689 Y89.033 E13.50345
G1 X101.386 Y89.093 E13.54765
G1 X102.064 Y89.201 E13.59098
G1 X102.733 Y89.354 E13.63437
G1 X103.397 Y89.544 E13.67798
G1 X104.047 Y89.778 E13.72160
G1 X104.681 Y90.052 E13.76521
G1 X105.297 Y90.365 E13.80882
G1 X105.891 Y90.717 E13.85244
G1 X106.462 Y91.105 E13.89605
G1 X107.008 Y91.529 E13.93967
G1 X107.526 Y91.985 E13.98328
G1 X108.015 Y92.474 E14.02689
G1 X108.470 Y92.991 E14.07040
G1 X108.895 Y93.538 E14.11412
G1 X109.283 Y94.109 E14.15774
G1 X109.635 Y94.703 E14.20135
G1 X109.947 Y95.317 E14.24486
G1 X110.223 Y95.954 E14.28868
G1 X110.456 Y96.603 E14.33220
G1 X110.650 Y97.267 E14.37591
G1 X110.800 Y97.940 E14.41942
G1 X110.908 Y98.622 E14.46304
G1 X110.973 Y99.310 E14.50665
G1 X110.995 Y100.000 E14.55027
G1 X110.973 Y100.690 E14.59388
G1 X110.908 Y101.378 E14.63749
G1 X110.800 Y102.060 E14.68111
G1 X110.649 Y102.734 E14.72472
G1 X110.456 Y103.397 E14.76834
G1 X110.222 Y104.047 E14.81195
G1 X109.948 Y104.681 E14.85557
G1 X109.635 Y105.297 E14.89918
G1 X109.283 Y105.891 E14.94279
G1 X108.895 Y106.462 E14.98641
G1 X108.471 Y107.008 E15.03002
G1 X108.054 Y107.482 E15.06989
G1 E13.06989 F2400.00000
G92 E0
G1 X91.093 Y109.462 F7800.000
G1 X85.006 Y112.127 F7800.000
G1 X85.006 Y109.715 F7800.000
G1 X85.006 Y109.497 F7800.000
G1 X85.006 Y109.324 F7800.000
G1 X85.006 Y108.412 F7800.000
G1 X81.391 Y106.274 F7800.000
G1 X77.661 Y107.187 F7800.000
G1 E2.00000 F2400.00000
G1 X77.098 Y107.737 E2.04971 F1800.000
G1 X76.702 Y108.087 E2.08309
G1 X76.181 Y108.491 E2.12472
G1 X75.635 Y108.861 E2.16635
G1 X75.068 Y109.197 E2.20799
G1 X74.480 Y109.496 E2.24962
G1 X73.875 Y109.758 E2.29126
G1 X73.255 Y109.982 E2.33289
G1 X72.622 Y110.166 E2.37452
G1 X71.978 Y110.309 E2.41616
G1 X71.327 Y110.413 E2.45779
G1 X70.671 Y110.475 E2.49942
G1 X70.012 Y110.495 E2.54106
G1 X69.353 Y110.475 E2.58269
G1 X68.696 Y110.413 E2.62433
G1 X68.045 Y110.309 E2.66596
G1 X67.402 Y110.166 E2.70759
G1 X66.769 Y109.982 E2.74923
G1 X66.146 Y109.757 E2.79103
G1 X65.427 Y109.437 E2.84074
G1 X64.956 Y109.197 E2.87412
G1 X64.388 Y108.861 E2.91575
G1 X63.843 Y108.491 E2.95738
G1 X63.322 Y108.087 E2.99902
G1 X62.827 Y107.651 E3.04065
G1 X62.361 Y107.185 E3.08229
G1 X61.925 Y106.690 E3.12392
G1 X61.521 Y106.169 E3.16555
G1 X61.150 Y105.624 E3.20719
G1 X60.815 Y105.056 E3.24882
G1 X60.515 Y104.469 E3.29045
G1 X60.253 Y103.864 E3.33209
G1 X60.030 Y103.243 E3.37372
G1 X59.846 Y102.610 E3.41536
G1 X59.702 Y101.967 E3.45699
G1 X59.599 Y101.315 E3.49862
G1 X59.537 Y100.659 E3.54026
G1 X59.516 Y100.000 E3.58189
G1 X59.537 Y99.341 E3.62353
G1 X59.599 Y98.685 E3.66516
G1 X59.702 Y98.033 E3.70679
G1 X59.846 Y97.390 E3.74843
G1 X60.030 Y96.757 E3.79006
G1 X60.253 Y96.136 E3.83169
G1 X60.515 Y95.531 E3.87333
G1 X60.815 Y94.944 E3.91496
G1 X61.150 Y94.376 E3.95660
G1 X61.521 Y93.831 E3.99823
G1 X61.925 Y93.310 E4.03986
G1 X62.361 Y92.815 E4.08150
G1 X62.827 Y92.349 E4.12313
G1 X63.322 Y91.913 E4.16477
G1 X63.843 Y91.509 E4.20640
G1 X64.388 Y91.139 E4.24803
G1 X64.956 Y90.803 E4.28967
G1 X65.543 Y90.504 E4.33130
G1 X66.148 Y90.242 E4.37293
G1 X66.769 Y90.018 E4.41457
G1 X67.402 Y89.834 E4.45620
G1 X68.045 Y89.691 E4.49784
G1 X68.699 Y89.587 E4.53964
G1 X69.484 Y89.521 E4.58935
G1 X70.012 Y89.505 E4.62272 F1800.000
G1 X70.671 Y89.525 E4.66436
G1 X71.327 Y89.587 E4.70599
G1 X71.981 Y89.691 E4.74779
G1 X72.747 Y89.871 E4.79751
G1 X73.255 Y90.018 E4.83088
G1 X73.875 Y90.242 E4.87251
G1 X74.480 Y90.504 E4.91415
G1 X75.068 Y90.803 E4.95578
G1 X75.635 Y91.139 E4.99742
G1 X76.181 Y91.509 E5.03905
G1 X76.702 Y91.913 E5.08068
G1 X77.196 Y92.349 E5.12232
G1 X77.663 Y92.815 E5.16395
