; generated by Slic3r 1.2.9 on 2017-02-11 at 22:03:34

; external perimeters extrusion width = 0.50mm
; perimeters extrusion width = 0.72mm
; infill extrusion width = 0.72mm
; solid infill extrusion width = 0.72mm
; top infill extrusion width = 0.72mm

M107
M190 S110 ; set bed temperature
M104 S245 ; set temperature
G28 ; home all axes
G1 Z5 F5000 ; lift nozzle

M109 S245 ; wait for temperature to be reached
G21 ; set units to millimeters
G90 ; use absolute coordinates
M82 ; use absolute distances for extrusion
G92 E0
G1 Z0.500 F7800.000
G1 E-2.00000 F2400.00000
G92 E0
G1 X52.002 Y73.150 F7800.000
G1 E2.00000 F2400.00000
G1 X52.859 Y72.563 E2.06554 F1800.000
G1 X53.899 Y71.903 E2.14333
G1 X54.616 Y71.478 E2.19599
G1 X55.697 Y70.884 E2.27388
G1 X56.439 Y70.506 E2.32641
G1 X57.555 Y69.981 E2.40434
G1 X58.824 Y69.444 E2.49131
G1 X59.601 Y69.146 E2.54386
G1 X60.767 Y68.740 E2.62184
G1 X61.569 Y68.489 E2.67491
G1 X62.889 Y68.123 E2.76139
G1 X64.092 Y67.841 E2.83941
G1 X64.908 Y67.677 E2.89198
G1 X66.265 Y67.450 E2.97888
G1 X67.490 Y67.295 E3.05682
G1 X68.319 Y67.217 E3.10942
G1 X69.695 Y67.133 E3.19645
G1 X71.000 Y67.107 E3.27888
G1 X129.072 Y67.108 E6.94586
G1 X130.455 Y67.140 E7.03323 F1800.000
G1 X131.681 Y67.217 E7.11077
G1 X132.366 Y67.280 E7.15422
G1 X133.734 Y67.450 E7.24125
G1 X135.235 Y67.704 E7.33742
G1 X136.581 Y67.993 E7.42436
G1 X137.251 Y68.159 E7.46791
G1 X138.438 Y68.491 E7.54572
G1 X139.886 Y68.961 E7.64187
G1 X141.181 Y69.446 E7.72920
G1 X142.312 Y69.922 E7.80666
G1 X142.940 Y70.208 E7.85024
G1 X144.302 Y70.883 E7.94624
G1 X145.509 Y71.550 E8.03332
G1 X146.101 Y71.903 E8.07685
G1 X147.141 Y72.563 E8.15465
G1 X148.391 Y73.431 E8.25076
G1 X149.488 Y74.267 E8.33781
G1 X150.437 Y75.053 E8.41565
G1 X150.955 Y75.508 E8.45917
G1 X151.962 Y76.449 E8.54620
G1 X153.027 Y77.536 E8.64227
G1 X153.947 Y78.563 E8.72933
G1 X154.390 Y79.089 E8.77280
G1 X155.156 Y80.055 E8.85061
G1 X155.968 Y81.168 E8.93762
G1 X156.734 Y82.315 E9.02472
G1 X157.522 Y83.616 E9.12078
G1 X158.183 Y84.825 E9.20778
G1 X158.731 Y85.929 E9.28563
G1 X159.020 Y86.557 E9.32924
G1 X159.556 Y87.825 E9.41617
G1 X160.086 Y89.251 E9.51224
G1 X160.509 Y90.562 E9.59927
G1 X160.841 Y91.749 E9.67708
G1 X161.007 Y92.419 E9.72062
G1 X161.323 Y93.908 E9.81676
G1 X161.550 Y95.266 E9.90374
G1 X161.705 Y96.490 E9.98161
G1 X161.771 Y97.176 E10.02515
G1 X161.866 Y98.695 E10.12123
G1 X161.887 Y99.383 E10.16473
G1 X161.887 Y100.610 E10.24217
G1 X161.832 Y101.993 E10.32960
G1 X161.705 Y103.510 E10.42571
G1 X161.529 Y104.877 E10.51271
G1 X161.296 Y106.235 E10.59975
G1 X161.040 Y107.440 E10.67751
G1 X160.877 Y108.110 E10.72109
G1 X160.468 Y109.576 E10.81716
G1 X160.039 Y110.886 E10.90422
G1 X159.556 Y112.176 E10.99122
G1 X159.081 Y113.306 E11.06857
G1 X158.792 Y113.940 E11.11258
G1 X158.116 Y115.303 E11.20865
G1 X157.449 Y116.509 E11.29567
G1 X157.097 Y117.101 E11.33920
G1 X156.441 Y118.136 E11.41656
G1 X155.652 Y119.276 E11.50411
G1 X154.733 Y120.487 E11.60014
G1 X153.947 Y121.437 E11.67799
G1 X153.492 Y121.955 E11.72150
G1 X152.550 Y122.963 E11.80859
G1 X151.464 Y124.027 E11.90461
G1 X150.437 Y124.947 E11.99167
G1 X149.905 Y125.394 E12.03556
G1 X148.945 Y126.155 E12.11295
G1 X147.713 Y127.050 E12.20907
G1 X147.137 Y127.440 E12.25301
G1 X146.101 Y128.097 E12.33047
G1 X144.909 Y128.789 E12.41750
G1 X143.561 Y129.494 E12.51354
G1 X142.306 Y130.081 E12.60109
G1 X141.176 Y130.556 E12.67844
G1 X140.532 Y130.804 E12.72201
G1 X139.233 Y131.260 E12.80897
G1 X137.778 Y131.700 E12.90498
G1 X136.440 Y132.040 E12.99215
G1 X135.235 Y132.296 E13.06991
G1 X134.556 Y132.420 E13.11348
G1 X133.052 Y132.642 E13.20952
G1 X131.681 Y132.783 E13.29653
G1 X130.305 Y132.866 E13.38356
G1 X129.000 Y132.893 E13.46600
G1 X71.000 Y132.893 E17.12844
G1 X69.695 Y132.866 E17.21088
G1 X68.319 Y132.783 E17.29789
G1 X67.490 Y132.705 E17.35050
G1 X66.123 Y132.529 E17.43749
G1 X64.908 Y132.323 E17.51535
G1 X63.560 Y132.040 E17.60229
G1 X62.749 Y131.841 E17.65503
G1 X61.424 Y131.468 E17.74194
G1 X60.251 Y131.086 E17.81986
G1 X59.467 Y130.804 E17.87244
G1 X58.188 Y130.295 E17.95941
G1 X57.060 Y129.792 E18.03737
G1 X55.825 Y129.183 E18.12433
G1 X55.091 Y128.789 E18.17690
G1 X54.023 Y128.172 E18.25484
G1 X52.859 Y127.437 E18.34177
G1 X52.168 Y126.968 E18.39450
G1 X51.172 Y126.244 E18.47227
G1 X50.513 Y125.733 E18.52494
G1 X49.563 Y124.947 E18.60279
G1 X48.431 Y123.928 E18.69895
G1 X47.550 Y123.065 E18.77682
G1 X46.973 Y122.464 E18.82940
G1 X46.508 Y121.955 E18.87295
G1 X45.701 Y121.021 E18.95088
G1 X44.756 Y119.828 E19.04698
G1 X44.032 Y118.832 E19.12473
G1 X43.563 Y118.141 E19.17747
G1 X42.903 Y117.101 E19.25528
G1 X42.478 Y116.384 E19.30792
G1 X41.883 Y115.302 E19.38589
G1 X41.506 Y114.561 E19.43839
G1 X40.981 Y113.445 E19.51627
G1 X40.705 Y112.812 E19.55986
G1 X40.391 Y112.041 E19.61244
G1 X39.961 Y110.886 E19.69026
G1 X39.491 Y109.438 E19.78641
G1 X39.159 Y108.251 E19.86422
G1 X38.960 Y107.440 E19.91696
G1 X38.704 Y106.235 E19.99472
G1 X38.556 Y105.414 E20.04737
G1 X38.376 Y104.194 E20.12527
G1 X38.280 Y103.366 E20.17792
G1 X38.177 Y102.138 E20.25575
G1 X38.139 Y101.448 E20.29934
G1 X38.113 Y100.617 E20.35188
G1 X38.113 Y99.382 E20.42987
G1 X38.177 Y97.862 E20.52588
G1 X38.280 Y96.633 E20.60378
G1 X38.376 Y95.806 E20.65636
G1 X38.471 Y95.123 E20.69988
G1 X38.677 Y93.908 E20.77772
G1 X38.841 Y93.092 E20.83030
G1 X39.123 Y91.889 E20.90832
G1 X39.339 Y91.085 E20.96084
G1 X39.695 Y89.905 E21.03871
G1 X39.961 Y89.114 E21.09139
G1 X40.388 Y87.965 E21.16877
G1 X40.981 Y86.555 E21.26537
G1 X41.506 Y85.439 E21.34329
G1 X41.884 Y84.697 E21.39583
G1 X42.478 Y83.616 E21.47371
G1 X42.828 Y83.023 E21.51723
G1 X43.266 Y82.315 E21.56978
G1 X43.949 Y81.287 E21.64773
G1 X44.845 Y80.055 E21.74389
G1 X45.610 Y79.089 E21.82171
G1 X46.148 Y78.453 E21.87430
G1 X46.605 Y77.937 E21.91785
G1 X47.449 Y77.038 E21.99572
G1 X48.038 Y76.449 E22.04831
G1 X48.937 Y75.605 E22.12618
G1 X49.562 Y75.053 E22.17884
G1 X50.513 Y74.267 E22.25670
G1 X51.172 Y73.756 E22.30937
G1 X51.941 Y73.193 E22.36959
G1 E20.36959 F2400.00000
G92 E0
G1 X104.025 Y91.300 F7800.000
G1 E2.00000 F2400.00000
G1 X104.410 Y90.267 E2.06965 F1800.000
G1 X104.839 Y89.245 E2.13960
G1 X105.311 Y88.243 E2.20955
G1 X105.819 Y87.270 E2.27891
G1 X106.672 Y85.827 E2.38469
G1 X107.282 Y84.909 E2.45435
G1 X107.933 Y84.012 E2.52429
G1 X108.621 Y83.144 E2.59424
G1 X109.345 Y82.306 E2.66418
G1 X110.498 Y81.103 E2.76939
G1 X111.302 Y80.348 E2.83904
G1 X112.141 Y79.624 E2.90899
G1 X113.009 Y78.936 E2.97893
G1 X113.905 Y78.285 E3.04888
G1 X114.827 Y77.672 E3.11883
G1 X115.775 Y77.098 E3.18878
G1 X117.243 Y76.311 E3.29398
G1 X118.241 Y75.841 E3.36363
G1 X119.267 Y75.410 E3.43387
G1 X120.300 Y75.025 E3.50352
G1 X121.354 Y74.683 E3.57347
G1 X122.963 Y74.252 E3.67868
G1 X124.042 Y74.022 E3.74832
G1 X125.134 Y73.838 E3.81827
G1 X126.233 Y73.699 E3.88822
G1 X127.337 Y73.606 E3.95817
G1 X129.011 Y73.554 E4.06395
G1 X130.110 Y73.577 E4.13331 F1800.000
G1 X131.215 Y73.647 E4.20326
G1 X132.312 Y73.762 E4.27291
G1 X133.408 Y73.924 E4.34286
G1 X135.041 Y74.253 E4.44806
G1 X136.110 Y74.527 E4.51772
G1 X137.170 Y74.847 E4.58766
G1 X138.746 Y75.415 E4.69344
G1 X139.759 Y75.841 E4.76282
G1 X140.761 Y76.313 E4.83276
G1 X141.739 Y76.824 E4.90241
G1 X142.702 Y77.380 E4.97265
G1 X143.633 Y77.971 E5.04230
G1 X144.543 Y78.603 E5.11225
G1 X145.425 Y79.273 E5.18220
G1 X146.279 Y79.979 E5.25214
G1 X147.505 Y81.106 E5.35735
G1 X148.280 Y81.898 E5.42729
G1 X149.018 Y82.718 E5.49695
G1 X149.727 Y83.575 E5.56719
G1 X150.394 Y84.453 E5.63684
G1 X151.026 Y85.363 E5.70678
G1 X151.620 Y86.298 E5.77673
G1 X152.438 Y87.750 E5.88194
G1 X152.930 Y88.742 E5.95188
G1 X153.381 Y89.754 E6.02183
G1 X153.788 Y90.784 E6.09177
G1 X154.153 Y91.830 E6.16172
G1 X154.473 Y92.890 E6.23166
G1 X154.747 Y93.959 E6.30132
G1 X154.977 Y95.042 E6.37126
G1 X155.161 Y96.125 E6.44064
G1 X155.354 Y97.789 E6.54642
G1 X155.423 Y98.895 E6.61636
G1 X155.446 Y99.998 E6.68601
G1 X155.394 Y101.663 E6.79122
G1 X155.302 Y102.762 E6.86087
G1 X155.162 Y103.866 E6.93111
G1 X154.978 Y104.958 E7.00106
G1 X154.747 Y106.041 E7.07100
G1 X154.473 Y107.110 E7.14066
G1 X154.151 Y108.175 E7.21090
G1 X153.788 Y109.216 E7.28056
G1 X153.379 Y110.250 E7.35079
G1 X152.930 Y111.258 E7.42044
G1 X152.438 Y112.250 E7.49038
G1 X151.620 Y113.702 E7.59559
G1 X151.029 Y114.633 E7.66525
G1 X150.397 Y115.543 E7.73520
G1 X149.727 Y116.425 E7.80514
G1 X149.021 Y117.279 E7.87508
G1 X147.894 Y118.505 E7.98029
G1 X147.105 Y119.277 E8.04994
G1 X146.282 Y120.018 E8.11989
G1 X145.425 Y120.727 E8.19012
G1 X144.543 Y121.397 E8.26007
G1 X143.633 Y122.029 E8.33002
G1 X142.702 Y122.620 E8.39967
G1 X141.250 Y123.438 E8.50488
G1 X140.262 Y123.928 E8.57453
G1 X139.250 Y124.379 E8.64448
G1 X138.216 Y124.788 E8.71471
G1 X137.175 Y125.151 E8.78437
G1 X136.114 Y125.471 E8.85431
G1 X135.041 Y125.747 E8.92426
G1 X133.408 Y126.076 E9.02947
G1 X132.317 Y126.238 E9.09912
G1 X131.215 Y126.353 E9.16907
G1 X130.110 Y126.423 E9.23901
G1 X129.002 Y126.446 E9.30896
G1 X127.337 Y126.394 E9.41417
G1 X126.238 Y126.302 E9.48381
G1 X125.134 Y126.162 E9.55406
G1 X124.047 Y125.978 E9.62371
G1 X122.963 Y125.748 E9.69365
G1 X121.890 Y125.473 E9.76360
G1 X120.830 Y125.153 E9.83354
G1 X119.784 Y124.788 E9.90349
G1 X118.754 Y124.381 E9.97344
G1 X117.742 Y123.930 E10.04339
G1 X116.750 Y123.438 E10.11333
G1 X115.298 Y122.620 E10.21854
G1 X114.367 Y122.029 E10.28819
G1 X113.453 Y121.394 E10.35842
G1 X112.575 Y120.727 E10.42808
G1 X111.721 Y120.021 E10.49802
G1 X110.898 Y119.280 E10.56797
G1 X110.106 Y118.505 E10.63792
G1 X108.979 Y117.279 E10.74313
G1 X108.273 Y116.425 E10.81307
G1 X107.603 Y115.543 E10.88301
G1 X106.973 Y114.637 E10.95267
G1 X106.380 Y113.702 E11.02261
G1 X105.826 Y112.743 E11.09256
G1 X105.313 Y111.761 E11.16251
G1 X104.841 Y110.759 E11.23245
G1 X104.415 Y109.746 E11.30182
G1 X103.847 Y108.170 E11.40761
G1 X103.529 Y107.114 E11.47725
G1 X103.253 Y106.041 E11.54720
G1 X103.022 Y104.958 E11.61715
G1 X102.838 Y103.866 E11.68709
G1 X102.699 Y102.767 E11.75704
G1 X102.606 Y101.663 E11.82699
G1 X102.554 Y99.998 E11.93219
G1 X102.577 Y98.895 E12.00184
G1 X102.646 Y97.789 E12.07179
G1 X102.762 Y96.688 E12.14173
G1 X102.924 Y95.592 E12.21168
G1 X103.131 Y94.504 E12.28163
G1 X103.384 Y93.425 E12.35158
G1 X103.682 Y92.358 E12.42153
G1 X104.001 Y91.372 E12.48703
G1 E10.48703 F2400.00000
G92 E0
G1 X102.850 Y93.280 F7800.000
G1 X100.000 Y92.591 F7800.000
G1 X100.000 Y93.149 F7800.000
G1 X100.000 Y93.183 F7800.000
G1 X97.288 Y93.840 F7800.000
G1 X96.581 Y93.296 F7800.000
G1 E2.00000 F2400.00000
G1 X96.748 Y93.963 E2.04343 F1800.000
G1 X96.978 Y95.047 E2.11337
G1 X97.162 Y96.134 E2.18303
G1 X97.301 Y97.233 E2.25297
G1 X97.423 Y98.895 E2.35818
G1 X97.446 Y99.998 E2.42782
G1 X97.423 Y101.110 E2.49807
G1 X97.354 Y102.211 E2.56772
G1 X97.239 Y103.303 E2.63709
G1 X96.978 Y104.958 E2.74287
G1 X96.748 Y106.037 E2.81252
G1 X96.473 Y107.110 E2.88248
G1 X96.153 Y108.170 E2.95242
G1 X95.787 Y109.221 E3.02266
G1 X95.379 Y110.250 E3.09260
G1 X94.930 Y111.258 E3.16226
G1 X94.438 Y112.250 E3.23220
G1 X93.909 Y113.213 E3.30157
G1 X93.026 Y114.637 E3.40735
G1 X92.397 Y115.543 E3.47701
G1 X91.727 Y116.425 E3.54696
G1 X90.652 Y117.698 E3.65215
G1 X89.897 Y118.502 E3.72181
G1 X89.102 Y119.280 E3.79205
G1 X88.282 Y120.018 E3.86171
G1 X87.425 Y120.727 E3.93194
G1 X86.543 Y121.397 E4.00189
G1 X85.637 Y122.026 E4.07154
G1 X84.221 Y122.904 E4.17675
G1 X83.255 Y123.436 E4.24640
G1 X82.258 Y123.930 E4.31664
G1 X81.250 Y124.379 E4.38629
G1 X80.216 Y124.788 E4.45652
G1 X79.175 Y125.151 E4.52618
G1 X78.114 Y125.471 E4.59613
G1 X77.041 Y125.747 E4.66608
G1 X75.958 Y125.978 E4.73602
G1 X74.303 Y126.239 E4.84180
G1 X73.215 Y126.353 E4.91088
G1 X72.110 Y126.423 E4.98082
G1 X71.002 Y126.446 E5.05077
G1 X69.895 Y126.423 E5.12072
G1 X68.233 Y126.301 E5.22593
G1 X67.139 Y126.163 E5.29557
G1 X66.047 Y125.978 E5.36552
G1 X64.421 Y125.615 E5.47073
G1 X63.354 Y125.317 E5.54067
G1 X62.300 Y124.975 E5.61062
G1 X61.267 Y124.590 E5.68027
G1 X60.241 Y124.159 E5.75051
G1 X59.239 Y123.687 E5.82045
G1 X58.261 Y123.176 E5.89011
G1 X57.302 Y122.622 E5.96005
G1 X56.367 Y122.029 E6.03000
G1 X55.009 Y121.064 E6.13521
G1 X54.144 Y120.379 E6.20486
G1 X53.306 Y119.655 E6.27480
G1 X52.498 Y118.897 E6.34475
G1 X51.723 Y118.105 E6.41469
G1 X50.621 Y116.856 E6.51990
G1 X49.936 Y115.991 E6.58955
G1 X49.282 Y115.091 E6.65979
G1 X48.672 Y114.173 E6.72945
G1 X48.098 Y113.225 E6.79939
G1 X47.564 Y112.254 E6.86934
G1 X47.072 Y111.262 E6.93928
G1 X46.410 Y109.733 E7.04449
G1 X46.024 Y108.695 E7.11444
G1 X45.683 Y107.646 E7.18409
G1 X45.252 Y106.037 E7.28930
G1 X45.022 Y104.958 E7.35894
G1 X44.837 Y103.861 E7.42918
G1 X44.698 Y102.762 E7.49913
G1 X44.606 Y101.658 E7.56908
G1 X44.559 Y100.556 E7.63873
G1 X44.559 Y99.448 E7.70868
G1 X44.606 Y98.342 E7.77862
G1 X44.697 Y97.247 E7.84799
G1 X44.924 Y95.587 E7.95377
G1 X45.131 Y94.504 E8.02343
G1 X45.384 Y93.425 E8.09337
G1 X45.682 Y92.358 E8.16332
G1 X46.024 Y91.305 E8.23326
G1 X46.410 Y90.267 E8.30321
G1 X46.839 Y89.245 E8.37316
G1 X47.311 Y88.243 E8.44311
G1 X47.819 Y87.270 E8.51247
G1 X48.672 Y85.827 E8.61825
G1 X49.282 Y84.909 E8.68791
G1 X49.936 Y84.009 E8.75815
G1 X50.624 Y83.141 E8.82809
G1 X51.345 Y82.306 E8.89774
G1 X52.103 Y81.498 E8.96769
G1 X52.895 Y80.723 E9.03764
G1 X54.144 Y79.621 E9.14284
G1 X55.009 Y78.936 E9.21249
G1 X55.905 Y78.285 E9.28244
G1 X56.827 Y77.672 E9.35239
G1 X57.775 Y77.098 E9.42233
G1 X59.243 Y76.311 E9.52754
G1 X60.241 Y75.841 E9.59719
G1 X61.267 Y75.410 E9.66743
G1 X62.300 Y75.025 E9.73708
G1 X63.354 Y74.683 E9.80703
G1 X64.963 Y74.252 E9.91224
G1 X66.042 Y74.022 E9.98188
G1 X67.134 Y73.838 E10.05183
G1 X68.233 Y73.699 E10.12178
G1 X69.337 Y73.606 E10.19172
G1 X71.011 Y73.554 E10.29750
G1 X72.110 Y73.577 E10.36687 F1800.000
G1 X73.215 Y73.647 E10.43682
G1 X74.312 Y73.762 E10.50647
G1 X75.408 Y73.924 E10.57642
G1 X76.501 Y74.132 E10.64665
G1 X77.575 Y74.384 E10.71631
G1 X78.646 Y74.683 E10.78655
G1 X79.695 Y75.024 E10.85621
G1 X80.738 Y75.412 E10.92644
G1 X81.755 Y75.839 E10.99610
G1 X82.757 Y76.311 E11.06604
G1 X83.739 Y76.824 E11.13599
G1 X84.698 Y77.378 E11.20594
G1 X85.633 Y77.971 E11.27588
G1 X86.991 Y78.936 E11.38110
G1 X87.859 Y79.624 E11.45103
G1 X88.698 Y80.348 E11.52098
G1 X89.502 Y81.103 E11.59063
G1 X90.280 Y81.898 E11.66087
G1 X91.018 Y82.718 E11.73053
G1 X91.727 Y83.575 E11.80076
G1 X92.394 Y84.453 E11.87042
G1 X93.026 Y85.363 E11.94036
G1 X93.620 Y86.298 E12.01031
G1 X94.174 Y87.257 E12.08026
G1 X94.687 Y88.239 E12.15021
G1 X95.159 Y89.241 E12.22015
G1 X95.588 Y90.262 E12.29010
G1 X95.975 Y91.300 E12.36004
G1 X96.317 Y92.354 E12.42999
G1 X96.562 Y93.224 E12.48704
G1 E10.48704 F2400.00000
G92 E0
G1 X89.221 Y117.839 F7800.000
G1 E2.00000 F2400.00000
G1 X88.061 Y118.952 E2.10149 F1800.000
G1 X87.254 Y119.648 E2.16877
G1 X86.419 Y120.310 E2.23605
G1 X85.109 Y121.241 E2.33753
G1 X84.210 Y121.812 E2.40481
G1 X83.287 Y122.344 E2.47209
G1 X81.855 Y123.074 E2.57357
G1 X80.884 Y123.506 E2.64068
G1 X79.384 Y124.082 E2.74217
G1 X78.373 Y124.411 E2.80928
G1 X76.820 Y124.827 E2.91077
G1 X75.778 Y125.048 E2.97805
G1 X74.725 Y125.226 E3.04549
G1 X73.668 Y125.360 E3.11277
G1 X72.065 Y125.478 E3.21425
G1 X71.000 Y125.500 E3.28153
G1 X69.935 Y125.478 E3.34881
G1 X68.332 Y125.360 E3.45029
G1 X67.275 Y125.226 E3.51757
G1 X66.222 Y125.048 E3.58502
G1 X65.180 Y124.827 E3.65229
G1 X63.627 Y124.411 E3.75378
G1 X62.614 Y124.082 E3.82105
G1 X61.609 Y123.708 E3.88876
G1 X60.140 Y123.072 E3.98982
G1 X59.186 Y122.598 E4.05710
G1 X58.252 Y122.085 E4.12438
G1 X56.889 Y121.239 E4.22570
G1 X55.581 Y120.310 E4.32702
G1 X54.746 Y119.648 E4.39430
G1 X53.937 Y118.950 E4.46174
G1 X53.161 Y118.221 E4.52901
G1 X52.053 Y117.066 E4.63008
G1 X51.352 Y116.254 E4.69778
G1 X50.690 Y115.419 E4.76506
G1 X49.763 Y114.115 E4.86612
G1 X49.188 Y113.210 E4.93382
G1 X48.656 Y112.287 E5.00110
G1 X47.929 Y110.861 E5.10216
G1 X47.494 Y109.884 E5.16970
G1 X46.918 Y108.384 E5.27118
G1 X46.589 Y107.373 E5.33830
G1 X46.175 Y105.827 E5.43936
G1 X45.952 Y104.778 E5.50706
G1 X45.774 Y103.725 E5.57450
G1 X45.640 Y102.668 E5.64178
