; generated by Slic3r 1.2.9 on 2017-02-10 at 19:54:34

; external perimeters extrusion width = 0.50mm
; perimeters extrusion width = 0.72mm
; infill extrusion width = 0.72mm
; solid infill extrusion width = 0.72mm
; top infill extrusion width = 0.72mm

M107
M104 S250 ; set temperature
G28 ; home all axes
G1 Z5 F5000 ; lift nozzle

M109 S250 ; wait for temperature to be reached
G21 ; set units to millimeters
G90 ; use absolute coordinates
M82 ; use absolute distances for extrusion
G92 E0
G1 Z0.500 F7800.000
G1 E-2.00000 F2400.00000
G92 E0
G1 X76.742 Y76.742 F7800.000
G1 E2.00000 F2400.00000
G1 X77.937 Y75.605 E2.10416 F1800.000
G1 X79.089 Y74.610 E2.20029
G1 X80.172 Y73.756 E2.28734
G1 X81.168 Y73.032 E2.36510
G1 X81.737 Y72.643 E2.40866
G1 X83.023 Y71.828 E2.50477
G1 X84.217 Y71.141 E2.59179
G1 X84.825 Y70.817 E2.63529
G1 X85.929 Y70.269 E2.71313
G1 X87.319 Y69.650 E2.80919
G1 X87.958 Y69.391 E2.85275
G1 X89.114 Y68.961 E2.93061
G1 X90.424 Y68.532 E3.01766
G1 X91.889 Y68.123 E3.11367
G1 X92.560 Y67.960 E3.15729
G1 X93.765 Y67.704 E3.23507
G1 X95.265 Y67.450 E3.33116
G1 X96.490 Y67.295 E3.40911
G1 X97.176 Y67.229 E3.45265
G1 X98.695 Y67.133 E3.54873
G1 X100.079 Y67.108 E3.63613
G1 X101.305 Y67.134 E3.71360 F1800.000
G1 X101.993 Y67.168 E3.75710
G1 X103.366 Y67.280 E3.84406
G1 X104.734 Y67.450 E3.93109
G1 X106.092 Y67.677 E4.01806
G1 X107.440 Y67.960 E4.10502
G1 X108.777 Y68.300 E4.19213
G1 X110.095 Y68.695 E4.27905
G1 X111.398 Y69.146 E4.36610
G1 X112.680 Y69.650 E4.45311
G1 X113.940 Y70.208 E4.54008
G1 X115.302 Y70.883 E4.63608
G1 X116.509 Y71.550 E4.72315
G1 X117.685 Y72.266 E4.81010
G1 X118.832 Y73.032 E4.89722
G1 X119.945 Y73.845 E4.98421
G1 X121.021 Y74.701 E5.07107
G1 X122.062 Y75.604 E5.15805
G1 X123.065 Y76.550 E5.24513
G1 X124.027 Y77.536 E5.33210
G1 X124.947 Y78.563 E5.41916
G1 X125.822 Y79.625 E5.50605
G1 X126.652 Y80.724 E5.59304
G1 X127.437 Y81.859 E5.68017
G1 X128.172 Y83.023 E5.76710
G1 X128.859 Y84.217 E5.85412
G1 X129.494 Y85.439 E5.94108
G1 X130.078 Y86.688 E6.02815
G1 X130.609 Y87.959 E6.11512
G1 X131.086 Y89.251 E6.20207
G1 X131.509 Y90.562 E6.28909
G1 X131.841 Y91.749 E6.36691
G1 X132.007 Y92.419 E6.41045
G1 X132.296 Y93.765 E6.49740
G1 X132.529 Y95.123 E6.58444
G1 X132.705 Y96.490 E6.67144
G1 X132.823 Y97.862 E6.75842
G1 X132.884 Y99.241 E6.84555
G1 X132.887 Y100.617 E6.93247
G1 X132.823 Y102.138 E7.02855
G1 X132.705 Y103.510 E7.11554
G1 X132.529 Y104.877 E7.20254
G1 X132.296 Y106.235 E7.28958
G1 X132.007 Y107.581 E7.37653
G1 X131.661 Y108.915 E7.46350
G1 X131.260 Y110.233 E7.55052
G1 X130.804 Y111.532 E7.63747
G1 X130.556 Y112.176 E7.68104
G1 X130.081 Y113.306 E7.75840
G1 X129.494 Y114.561 E7.84594
G1 X128.859 Y115.783 E7.93286
G1 X128.172 Y116.977 E8.01988
G1 X127.436 Y118.143 E8.10691
G1 X126.652 Y119.276 E8.19393
G1 X125.821 Y120.376 E8.28095
G1 X124.947 Y121.437 E8.36781
G1 X124.027 Y122.464 E8.45487
G1 X123.065 Y123.450 E8.54184
G1 X122.063 Y124.395 E8.62881
G1 X121.022 Y125.298 E8.71587
G1 X119.945 Y126.155 E8.80276
G1 X118.713 Y127.050 E8.89889
G1 X117.565 Y127.810 E8.98585
G1 X116.384 Y128.522 E9.07293
G1 X115.175 Y129.183 E9.15994
G1 X113.940 Y129.792 E9.24690
G1 X112.680 Y130.350 E9.33387
G1 X111.399 Y130.854 E9.42080
G1 X110.095 Y131.305 E9.50793
G1 X108.778 Y131.700 E9.59479
G1 X107.440 Y132.040 E9.68196
G1 X106.092 Y132.323 E9.76891
G1 X104.877 Y132.529 E9.84676
G1 X104.194 Y132.624 E9.89027
G1 X102.824 Y132.771 E9.97730
G1 X101.450 Y132.860 E10.06426
G1 X100.072 Y132.892 E10.15126
G1 X98.695 Y132.866 E10.23825
G1 X97.319 Y132.783 E10.32526
G1 X95.949 Y132.642 E10.41225
G1 X94.445 Y132.420 E10.50822
G1 X93.092 Y132.159 E10.59525
G1 X91.749 Y131.841 E10.68239
G1 X90.424 Y131.468 E10.76931
G1 X89.114 Y131.039 E10.85637
G1 X87.825 Y130.556 E10.94330
G1 X86.549 Y130.016 E11.03077
G1 X85.439 Y129.494 E11.10822
G1 X84.825 Y129.183 E11.15169
G1 X83.616 Y128.522 E11.23869
G1 X82.436 Y127.810 E11.32573
G1 X81.287 Y127.051 E11.41269
G1 X80.172 Y126.244 E11.49962
G1 X79.089 Y125.390 E11.58667
G1 X78.045 Y124.492 E11.67365
G1 X77.038 Y123.551 E11.76068
G1 X76.072 Y122.569 E11.84765
G1 X75.147 Y121.546 E11.93478
G1 X74.267 Y120.488 E12.02165
G1 X73.431 Y119.391 E12.10870
G1 X72.643 Y118.262 E12.19571
G1 X71.903 Y117.101 E12.28262
G1 X71.211 Y115.909 E12.36964
G1 X70.570 Y114.690 E12.45664
G1 X69.981 Y113.445 E12.54360
G1 X69.444 Y112.175 E12.63069
G1 X68.914 Y110.749 E12.72672
G1 X68.491 Y109.438 E12.81374
G1 X68.123 Y108.110 E12.90071
G1 X67.960 Y107.440 E12.94429
G1 X67.704 Y106.235 E13.02204
G1 X67.471 Y104.877 E13.10908
G1 X67.295 Y103.510 E13.19608
G1 X67.177 Y102.138 E13.28307
G1 X67.116 Y100.760 E13.37013
G1 X67.113 Y99.382 E13.45719
G1 X67.168 Y98.007 E13.54407
G1 X67.280 Y96.633 E13.63110
G1 X67.450 Y95.265 E13.71814
G1 X67.677 Y93.908 E13.80503
G1 X67.960 Y92.560 E13.89201
G1 X68.300 Y91.223 E13.97910
G1 X68.695 Y89.905 E14.06601
G1 X69.146 Y88.601 E14.15314
G1 X69.705 Y87.188 E14.24908
G1 X70.269 Y85.929 E14.33616
G1 X70.884 Y84.697 E14.42312
G1 X71.551 Y83.491 E14.51014
G1 X72.266 Y82.315 E14.59707
G1 X73.032 Y81.168 E14.68419
G1 X73.845 Y80.055 E14.77118
G1 X74.702 Y78.979 E14.85807
G1 X75.605 Y77.937 E14.94513
G1 X76.689 Y76.795 E15.04455
G1 E13.04455 F2400.00000
G92 E0
G1 X81.301 Y81.301 F7800.000
G1 E2.00000 F2400.00000
G1 X82.302 Y80.348 E2.08728 F1800.000
G1 X83.144 Y79.621 E2.15752
G1 X84.012 Y78.933 E2.22747
G1 X85.363 Y77.974 E2.33208
G1 X86.302 Y77.377 E2.40233
G1 X87.261 Y76.824 E2.47227
G1 X88.738 Y76.072 E2.57688
G1 X89.754 Y75.619 E2.64712
G1 X91.300 Y75.025 E2.75174
G1 X92.358 Y74.682 E2.82198
G1 X93.959 Y74.253 E2.92660
G1 X95.042 Y74.022 E2.99654
G1 X96.148 Y73.836 E3.06736
G1 X97.785 Y73.647 E3.17140
G1 X98.895 Y73.577 E3.24165
G1 X100.011 Y73.554 E3.31217
G1 X101.658 Y73.606 E3.41620 F1800.000
G1 X102.762 Y73.698 E3.48615
G1 X103.861 Y73.837 E3.55610
G1 X104.953 Y74.022 E3.62604
G1 X106.037 Y74.252 E3.69599
G1 X107.110 Y74.527 E3.76594
G1 X108.170 Y74.847 E3.83588
G1 X109.216 Y75.212 E3.90583
G1 X110.246 Y75.619 E3.97578
G1 X111.258 Y76.070 E4.04573
G1 X112.250 Y76.562 E4.11567
G1 X113.221 Y77.096 E4.18561
G1 X114.169 Y77.669 E4.25556
G1 X115.091 Y78.282 E4.32551
G1 X115.991 Y78.936 E4.39576
G1 X116.859 Y79.624 E4.46569
G1 X117.698 Y80.348 E4.53564
G1 X118.505 Y81.106 E4.60559
G1 X119.280 Y81.898 E4.67553
G1 X120.021 Y82.721 E4.74549
G1 X120.727 Y83.575 E4.81543
G1 X121.710 Y84.897 E4.91946
G1 X122.328 Y85.827 E4.98999
G1 X122.897 Y86.767 E5.05936
G1 X123.436 Y87.745 E5.12988
G1 X123.928 Y88.737 E5.19982
G1 X124.379 Y89.749 E5.26977
G1 X124.787 Y90.779 E5.33972
G1 X125.151 Y91.825 E5.40967
G1 X125.473 Y92.890 E5.47990
G1 X125.747 Y93.959 E5.54956
G1 X125.977 Y95.042 E5.61950
G1 X126.162 Y96.134 E5.68945
G1 X126.301 Y97.233 E5.75939
G1 X126.394 Y98.337 E5.82934
G1 X126.441 Y99.444 E5.89930
G1 X126.441 Y100.552 E5.96924
G1 X126.394 Y101.658 E6.03918
G1 X126.302 Y102.762 E6.10913
G1 X126.162 Y103.866 E6.17937
G1 X125.978 Y104.958 E6.24932
G1 X125.747 Y106.041 E6.31926
G1 X125.473 Y107.110 E6.38892
G1 X125.151 Y108.175 E6.45916
G1 X124.787 Y109.221 E6.52911
G1 X124.165 Y110.746 E6.63314
G1 X123.689 Y111.757 E6.70367
G1 X123.176 Y112.739 E6.77361
G1 X122.623 Y113.698 E6.84355
G1 X122.029 Y114.633 E6.91351
G1 X121.397 Y115.543 E6.98346
G1 X120.727 Y116.425 E7.05340
G1 X120.021 Y117.279 E7.12334
G1 X119.280 Y118.102 E7.19329
G1 X118.502 Y118.897 E7.26353
G1 X117.698 Y119.652 E7.33319
G1 X116.859 Y120.376 E7.40313
G1 X115.991 Y121.064 E7.47307
G1 X115.091 Y121.718 E7.54331
G1 X114.173 Y122.328 E7.61297
G1 X113.225 Y122.902 E7.68292
G1 X112.255 Y123.436 E7.75287
G1 X111.262 Y123.928 E7.82281
G1 X110.246 Y124.381 E7.89305
G1 X109.216 Y124.788 E7.96299
G1 X108.175 Y125.151 E8.03265
G1 X107.110 Y125.473 E8.10288
G1 X106.037 Y125.748 E8.17284
G1 X104.953 Y125.978 E8.24279
G1 X103.861 Y126.163 E8.31273
G1 X102.762 Y126.302 E8.38267
G1 X101.658 Y126.394 E8.45263
G1 X100.556 Y126.441 E8.52227
G1 X99.444 Y126.441 E8.59251
G1 X98.342 Y126.394 E8.66217
G1 X97.233 Y126.301 E8.73241
G1 X96.139 Y126.163 E8.80206
G1 X95.042 Y125.977 E8.87231
G1 X93.950 Y125.745 E8.94282
G1 X92.358 Y125.318 E9.04686
G1 X91.305 Y124.976 E9.11681
G1 X90.267 Y124.590 E9.18675
G1 X89.241 Y124.159 E9.25699
G1 X88.231 Y123.683 E9.32751
G1 X86.779 Y122.904 E9.43155
G1 X85.831 Y122.331 E9.50151
G1 X84.909 Y121.718 E9.57145
G1 X84.012 Y121.067 E9.64139
G1 X83.144 Y120.379 E9.71134
G1 X82.306 Y119.655 E9.78129
G1 X81.498 Y118.897 E9.85123
G1 X80.723 Y118.105 E9.92118
G1 X79.982 Y117.282 E9.99114
G1 X79.276 Y116.429 E10.06107
G1 X78.606 Y115.547 E10.13102
G1 X77.973 Y114.637 E10.20097
G1 X77.380 Y113.702 E10.27091
G1 X76.826 Y112.743 E10.34086
G1 X76.313 Y111.761 E10.41081
G1 X75.841 Y110.759 E10.48075
G1 X75.412 Y109.738 E10.55070
G1 X75.024 Y108.695 E10.62094
G1 X74.683 Y107.646 E10.69060
G1 X74.384 Y106.575 E10.76083
G1 X74.022 Y104.958 E10.86545
G1 X73.838 Y103.866 E10.93539
G1 X73.699 Y102.767 E11.00534
G1 X73.606 Y101.663 E11.07529
G1 X73.559 Y100.556 E11.14524
G1 X73.559 Y99.448 E11.21519
G1 X73.606 Y98.342 E11.28513
G1 X73.698 Y97.238 E11.35508
G1 X73.837 Y96.139 E11.42502
G1 X74.022 Y95.047 E11.49496
G1 X74.253 Y93.959 E11.56521
G1 X74.527 Y92.890 E11.63486
G1 X74.847 Y91.830 E11.70480
G1 X75.212 Y90.784 E11.77476
G1 X75.619 Y89.754 E11.84470
G1 X76.072 Y88.738 E11.91494
G1 X76.562 Y87.750 E11.98459
G1 X77.096 Y86.779 E12.05454
G1 X77.672 Y85.827 E12.12478
G1 X78.285 Y84.905 E12.19473
G1 X78.936 Y84.009 E12.26467
G1 X79.624 Y83.141 E12.33462
G1 X80.348 Y82.302 E12.40456
G1 X81.248 Y81.354 E12.48711
G1 E10.48711 F2400.00000
G92 E0
G1 X118.221 Y117.839 F7800.000
G1 E2.00000 F2400.00000
G1 X117.061 Y118.952 E2.10149 F1800.000
G1 X116.254 Y119.648 E2.16877
G1 X115.419 Y120.310 E2.23605
G1 X114.109 Y121.241 E2.33753
G1 X113.210 Y121.812 E2.40481
G1 X112.287 Y122.344 E2.47209
G1 X110.855 Y123.074 E2.57357
G1 X109.884 Y123.506 E2.64068
G1 X108.384 Y124.082 E2.74217
G1 X107.373 Y124.411 E2.80928
G1 X105.820 Y124.827 E2.91077
G1 X104.778 Y125.048 E2.97805
G1 X103.725 Y125.226 E3.04549
G1 X102.668 Y125.360 E3.11277
G1 X101.065 Y125.478 E3.21425
G1 X100.000 Y125.500 E3.28153
G1 X98.935 Y125.478 E3.34881
G1 X97.332 Y125.360 E3.45029
G1 X96.275 Y125.226 E3.51757
G1 X95.222 Y125.048 E3.58502
G1 X94.180 Y124.827 E3.65229
G1 X92.627 Y124.411 E3.75378
G1 X91.614 Y124.082 E3.82105
G1 X90.609 Y123.708 E3.88876
G1 X89.140 Y123.072 E3.98982
G1 X88.186 Y122.598 E4.05710
G1 X87.252 Y122.085 E4.12438
G1 X85.889 Y121.239 E4.22570
G1 X84.581 Y120.310 E4.32702
G1 X83.746 Y119.648 E4.39430
G1 X82.937 Y118.950 E4.46174
G1 X82.161 Y118.221 E4.52901
G1 X81.053 Y117.066 E4.63008
G1 X80.352 Y116.254 E4.69778
G1 X79.690 Y115.419 E4.76506
G1 X78.763 Y114.115 E4.86612
G1 X78.188 Y113.210 E4.93382
G1 X77.656 Y112.287 E5.00110
G1 X76.929 Y110.861 E5.10216
G1 X76.494 Y109.884 E5.16970
G1 X75.918 Y108.384 E5.27118
G1 X75.589 Y107.373 E5.33830
G1 X75.175 Y105.827 E5.43936
G1 X74.952 Y104.778 E5.50706
G1 X74.774 Y103.725 E5.57450
G1 X74.640 Y102.668 E5.64178
G1 X74.523 Y101.072 E5.74284
G1 X74.500 Y100.000 E5.81055
G1 X74.522 Y98.935 E5.87782
G1 X74.639 Y97.339 E5.97888
G1 X74.774 Y96.275 E6.04659
G1 X74.952 Y95.222 E6.11403
G1 X75.173 Y94.180 E6.18130
G1 X75.589 Y92.627 E6.28279
G1 X75.918 Y91.616 E6.34990
G1 X76.494 Y90.116 E6.45139
G1 X76.926 Y89.145 E6.51851
G1 X77.652 Y87.719 E6.61956
G1 X78.188 Y86.790 E6.68727
G1 X78.759 Y85.891 E6.75454
G1 X79.690 Y84.581 E6.85603
G1 X80.352 Y83.746 E6.92331
G1 X81.048 Y82.939 E6.99058
G1 X82.161 Y81.779 E7.09207
G1 X82.937 Y81.050 E7.15935
G1 X83.746 Y80.352 E7.22679
G1 X84.581 Y79.690 E7.29407
G1 X85.889 Y78.761 E7.39539
G1 X87.252 Y77.915 E7.49671
G1 X88.184 Y77.403 E7.56382
G1 X89.631 Y76.704 E7.66531
G1 X90.613 Y76.291 E7.73259
G1 X91.614 Y75.919 E7.80003
G1 X92.634 Y75.587 E7.86773
G1 X94.180 Y75.173 E7.96879
G1 X95.219 Y74.952 E8.03591
G1 X96.807 Y74.701 E8.13739
G1 X97.866 Y74.590 E8.20467
G1 X98.932 Y74.522 E8.27211
G1 X100.004 Y74.500 E8.33982
G1 X101.604 Y74.551 E8.44087
G1 X102.665 Y74.640 E8.50815 F1800.000
G1 X103.722 Y74.773 E8.57543
G1 X105.304 Y75.058 E8.67692
G1 X106.339 Y75.301 E8.74403
G1 X107.882 Y75.749 E8.84551
G1 X108.889 Y76.099 E8.91279
G1 X109.882 Y76.493 E8.98024
G1 X110.855 Y76.926 E9.04752
G1 X112.287 Y77.656 E9.14900
G1 X113.210 Y78.188 E9.21627
G1 X114.115 Y78.763 E9.28398
G1 X115.419 Y79.690 E9.38504
G1 X116.254 Y80.352 E9.45232
G1 X117.066 Y81.053 E9.52002
G1 X118.221 Y82.161 E9.62108
G1 X118.950 Y82.937 E9.68836
G1 X119.648 Y83.746 E9.75580
G1 X120.310 Y84.581 E9.82308
G1 X121.239 Y85.889 E9.92440
G1 X122.081 Y87.247 E10.02530
G1 X122.598 Y88.186 E10.09300
G1 X123.072 Y89.140 E10.16028
G1 X123.708 Y90.609 E10.26134
G1 X124.082 Y91.614 E10.32905
G1 X124.411 Y92.627 E10.39632
G1 X124.825 Y94.173 E10.49738
G1 X125.048 Y95.222 E10.56509
G1 X125.226 Y96.275 E10.63253
G1 X125.360 Y97.332 E10.69981
G1 X125.477 Y98.928 E10.80086
G1 X125.500 Y100.000 E10.86857
G1 X125.478 Y101.065 E10.93585
G1 X125.361 Y102.661 E11.03691
G1 X125.226 Y103.725 E11.10461
G1 X125.048 Y104.778 E11.17205
G1 X124.827 Y105.820 E11.23933
G1 X124.413 Y107.366 E11.34039
G1 X124.081 Y108.386 E11.40810
G1 X123.709 Y109.387 E11.47554
G1 X123.296 Y110.369 E11.54282
G1 X122.597 Y111.816 E11.64430
G1 X122.085 Y112.748 E11.71141
G1 X121.242 Y114.108 E11.81247
G1 X120.630 Y114.988 E11.88018
G1 X119.986 Y115.837 E11.94745
G1 X118.948 Y117.065 E12.04894
G1 X118.272 Y117.785 E12.11131
G1 X117.738 Y117.708 F7800.000
G1 X117.586 Y117.211 F7800.000
G1 X116.460 Y118.291 E12.20985 F1800.000
G1 X115.685 Y118.960 E12.27447
G1 X114.883 Y119.596 E12.33910
G1 X113.611 Y120.500 E12.43763
G1 X112.747 Y121.048 E12.50225
G1 X111.861 Y121.560 E12.56687
G1 X110.471 Y122.268 E12.66540
G1 X109.542 Y122.681 E12.72956
G1 X108.085 Y123.241 E12.82810
G1 X107.119 Y123.554 E12.89226
G1 X105.612 Y123.958 E12.99079
G1 X104.611 Y124.171 E13.05541
G1 X103.595 Y124.343 E13.12049
G1 X102.579 Y124.471 E13.18511
G1 X101.023 Y124.586 E13.28365
G1 X100.000 Y124.607 E13.34827
G1 X98.977 Y124.586 E13.41289
G1 X97.421 Y124.471 E13.51142
G1 X96.405 Y124.343 E13.57604
G1 X95.389 Y124.171 E13.64113
G1 X94.388 Y123.958 E13.70574
G1 X92.881 Y123.554 E13.80428
G1 X91.908 Y123.238 E13.86889
G1 X90.942 Y122.879 E13.93394
G1 X89.516 Y122.262 E14.03205
G1 X88.600 Y121.807 E14.09668
G1 X87.703 Y121.314 E14.16130
G1 X86.383 Y120.495 E14.25937
G1 X85.117 Y119.596 E14.35744
G1 X84.315 Y118.960 E14.42206
G1 X83.535 Y118.287 E14.48714
G1 X82.789 Y117.586 E14.55177
G1 X81.713 Y116.465 E14.64988
G1 X81.040 Y115.685 E14.71493
G1 X80.404 Y114.883 E14.77955
G1 X79.504 Y113.617 E14.87766
G1 X78.952 Y112.747 E14.94270
G1 X78.440 Y111.861 E15.00732
G1 X77.735 Y110.477 E15.10543
G1 X77.319 Y109.542 E15.17002
G1 X76.759 Y108.085 E15.26855
G1 X76.445 Y107.119 E15.33271
G1 X76.043 Y105.618 E15.43082
G1 X75.829 Y104.611 E15.49587
G1 X75.657 Y103.595 E15.56094
G1 X75.529 Y102.579 E15.62556
G1 X75.415 Y101.030 E15.72368
G1 X75.393 Y100.000 E15.78872
G1 X75.414 Y98.977 E15.85334
G1 X75.528 Y97.427 E15.95145
G1 X75.657 Y96.405 E16.01650
G1 X75.829 Y95.389 E16.08157
G1 X76.042 Y94.388 E16.14619
G1 X76.445 Y92.881 E16.24473
G1 X76.759 Y91.915 E16.30889
G1 X77.319 Y90.458 E16.40742
G1 X77.732 Y89.529 E16.47159
G1 X78.437 Y88.145 E16.56970
G1 X78.952 Y87.253 E16.63474
G1 X79.500 Y86.389 E16.69936
G1 X80.404 Y85.117 E16.79789
G1 X81.040 Y84.315 E16.86251
G1 X81.709 Y83.540 E16.92713
G1 X82.789 Y82.414 E17.02567
G1 X83.535 Y81.713 E17.09029
G1 X84.315 Y81.040 E17.15537
G1 X85.117 Y80.404 E17.21999
G1 X86.383 Y79.505 E17.31806
G1 X87.703 Y78.686 E17.41613
G1 X88.593 Y78.197 E17.48030
G1 X89.998 Y77.518 E17.57883
G1 X90.942 Y77.121 E17.64345
G1 X91.907 Y76.762 E17.70852
G1 X92.887 Y76.444 E17.77357
G1 X94.388 Y76.042 E17.87168
G1 X95.382 Y75.830 E17.93585
G1 X96.923 Y75.586 E18.03438
G1 X97.941 Y75.479 E18.09900
G1 X98.969 Y75.415 E18.16407
G1 X99.999 Y75.393 E18.22912
G1 X101.552 Y75.442 E18.32723
G1 X102.572 Y75.528 E18.39186 F1800.000
G1 X103.587 Y75.656 E18.45648
G1 X105.123 Y75.932 E18.55501
G1 X106.112 Y76.164 E18.61917
G1 X107.611 Y76.600 E18.71770
