; generated by Slic3r 1.2.9 on 2017-02-13 at 21:10:58

; external perimeters extrusion width = 0.50mm
; perimeters extrusion width = 0.72mm
; infill extrusion width = 0.72mm
; solid infill extrusion width = 0.72mm
; top infill extrusion width = 0.72mm

M107
M190 S110 ; set bed temperature
M104 S245 ; set temperature
G28 ; home all axes
G1 Z5 F5000 ; lift nozzle

M109 S245 ; wait for temperature to be reached
G21 ; set units to millimeters
G90 ; use absolute coordinates
M82 ; use absolute distances for extrusion
G92 E0
G1 Z0.500 F7800.000
G1 E-2.00000 F2400.00000
G92 E0
G1 X47.742 Y47.742 F7800.000
G1 E2.00000 F2400.00000
G1 X48.536 Y46.973 E2.06978 F1800.000
G1 X49.562 Y46.053 E2.15682
G1 X50.625 Y45.178 E2.24373
G1 X51.724 Y44.348 E2.33072
G1 X52.859 Y43.563 E2.41784
G1 X54.023 Y42.828 E2.50477
G1 X55.217 Y42.141 E2.59179
G1 X56.439 Y41.506 E2.67871
G1 X57.688 Y40.922 E2.76582
G1 X58.958 Y40.391 E2.85275
G1 X60.251 Y39.914 E2.93974
G1 X61.561 Y39.491 E3.02670
G1 X62.889 Y39.123 E3.11367
G1 X64.231 Y38.812 E3.20069
G1 X65.586 Y38.556 E3.28773
G1 X66.949 Y38.358 E3.37472
G1 X68.176 Y38.229 E3.45265
G1 X69.007 Y38.168 E3.50523
G1 X70.239 Y38.116 E3.58311
G1 X71.000 Y38.107 E3.63117
G1 X129.072 Y38.108 E7.29815
G1 X130.455 Y38.140 E7.38551 F1800.000
G1 X131.681 Y38.217 E7.46306
G1 X132.366 Y38.280 E7.50651
G1 X133.734 Y38.450 E7.59354
G1 X135.235 Y38.704 E7.68970
G1 X136.581 Y38.993 E7.77665
G1 X137.251 Y39.159 E7.82019
G1 X138.438 Y39.491 E7.89801
G1 X139.886 Y39.961 E7.99416
G1 X141.181 Y40.446 E8.08149
G1 X142.312 Y40.922 E8.15895
G1 X142.940 Y41.208 E8.20253
G1 X144.302 Y41.883 E8.29853
G1 X145.509 Y42.550 E8.38560
G1 X146.101 Y42.903 E8.42913
G1 X147.141 Y43.563 E8.50694
G1 X148.391 Y44.431 E8.60305
G1 X149.488 Y45.267 E8.69010
G1 X150.437 Y46.053 E8.76794
G1 X150.955 Y46.508 E8.81145
G1 X151.962 Y47.449 E8.89849
G1 X153.027 Y48.536 E8.99456
G1 X153.947 Y49.563 E9.08162
G1 X154.390 Y50.089 E9.12508
G1 X155.156 Y51.055 E9.20290
G1 X155.968 Y52.168 E9.28990
G1 X156.734 Y53.315 E9.37701
G1 X157.522 Y54.616 E9.47307
G1 X158.183 Y55.825 E9.56007
G1 X158.731 Y56.929 E9.63791
G1 X159.020 Y57.557 E9.68152
G1 X159.556 Y58.825 E9.76845
G1 X160.086 Y60.251 E9.86453
G1 X160.509 Y61.562 E9.95155
G1 X160.841 Y62.749 E10.02936
G1 X161.007 Y63.419 E10.07291
G1 X161.323 Y64.908 E10.16904
G1 X161.550 Y66.266 E10.25602
G1 X161.705 Y67.490 E10.33389
G1 X161.771 Y68.176 E10.37743
G1 X161.866 Y69.695 E10.47351
G1 X161.893 Y71.000 E10.55595
G1 X161.884 Y129.761 E14.26644
G1 X161.832 Y130.993 E14.34433
G1 X161.720 Y132.366 E14.43129
G1 X161.624 Y133.194 E14.48393
G1 X161.444 Y134.414 E14.56183
G1 X161.296 Y135.235 E14.61448
G1 X161.007 Y136.581 E14.70144
G1 X160.700 Y137.778 E14.77942
G1 X160.305 Y139.095 E14.86628
G1 X160.039 Y139.886 E14.91895
G1 X159.609 Y141.042 E14.99685
G1 X159.081 Y142.306 E15.08331
G1 X158.731 Y143.070 E15.13643
G1 X158.116 Y144.303 E15.22339
G1 X157.522 Y145.384 E15.30128
G1 X157.097 Y146.101 E15.35394
G1 X156.357 Y147.263 E15.44090
G1 X155.569 Y148.391 E15.52783
G1 X154.821 Y149.376 E15.60587
G1 X153.947 Y150.437 E15.69273
G1 X153.395 Y151.063 E15.74541
G1 X152.550 Y151.963 E15.82333
G1 X151.569 Y152.928 E15.91024
G1 X150.955 Y153.492 E15.96290
G1 X149.912 Y154.389 E16.04977
G1 X148.945 Y155.155 E16.12769
G1 X147.832 Y155.968 E16.21468
G1 X147.143 Y156.436 E16.26732
G1 X145.977 Y157.172 E16.35435
G1 X144.909 Y157.789 E16.43225
G1 X144.175 Y158.183 E16.48487
G1 X142.940 Y158.792 E16.57183
G1 X141.812 Y159.295 E16.64979
G1 X141.036 Y159.611 E16.70273
G1 X139.749 Y160.086 E16.78933
G1 X138.576 Y160.468 E16.86725
G1 X137.251 Y160.841 E16.95417
G1 X136.440 Y161.040 E17.00690
G1 X135.092 Y161.323 E17.09385
G1 X133.877 Y161.529 E17.17170
G1 X133.052 Y161.642 E17.22428
G1 X131.824 Y161.771 E17.30224
G1 X130.993 Y161.832 E17.35482
G1 X129.761 Y161.884 E17.43270
G1 X129.000 Y161.893 E17.48076
G1 X71.000 Y161.893 E21.14320
G1 X69.695 Y161.866 E21.22564
G1 X68.862 Y161.823 E21.27827
G1 X67.490 Y161.705 E21.36526
G1 X66.266 Y161.550 E21.44313
G1 X64.765 Y161.296 E21.53929
G1 X63.412 Y161.005 E21.62664
G1 X62.749 Y160.841 E21.66979
G1 X61.562 Y160.509 E21.74760
G1 X60.114 Y160.039 E21.84376
G1 X58.818 Y159.554 E21.93113
G1 X57.688 Y159.078 E22.00855
G1 X57.060 Y158.792 E22.05212
G1 X55.697 Y158.116 E22.14819
G1 X54.486 Y157.447 E22.23558
G1 X53.899 Y157.097 E22.27874
G1 X52.859 Y156.437 E22.35653
G1 X51.610 Y155.569 E22.45257
G1 X50.513 Y154.733 E22.53969
G1 X49.563 Y153.947 E22.61753
G1 X49.045 Y153.492 E22.66104
G1 X47.935 Y152.450 E22.75718
G1 X47.449 Y151.962 E22.80066
G1 X46.609 Y151.068 E22.87811
G1 X45.701 Y150.021 E22.96563
G1 X44.756 Y148.828 E23.06172
G1 X44.032 Y147.832 E23.13948
G1 X43.563 Y147.141 E23.19222
G1 X42.828 Y145.977 E23.27915
G1 X42.211 Y144.909 E23.35705
G1 X41.817 Y144.175 E23.40967
G1 X41.208 Y142.940 E23.49663
G1 X40.705 Y141.812 E23.57460
G1 X40.391 Y141.041 E23.62717
G1 X39.961 Y139.886 E23.70500
G1 X39.695 Y139.095 E23.75767
G1 X39.300 Y137.777 E23.84458
G1 X38.993 Y136.581 E23.92251
G1 X38.704 Y135.235 E24.00946
G1 X38.556 Y134.414 E24.06211
G1 X38.358 Y133.051 E24.14911
G1 X38.229 Y131.824 E24.22704
G1 X38.139 Y130.448 E24.31408
G1 X38.107 Y129.000 E24.40555
G1 X38.116 Y70.239 E28.11604
G1 X38.177 Y68.862 E28.20306
G1 X38.280 Y67.641 E28.28046
G1 X38.358 Y66.949 E28.32443
G1 X38.580 Y65.444 E28.42051
G1 X38.841 Y64.092 E28.50746
G1 X39.159 Y62.749 E28.59457
G1 X39.489 Y61.569 E28.67195
G1 X39.695 Y60.905 E28.71588
G1 X40.146 Y59.601 E28.80301
G1 X40.705 Y58.188 E28.89895
G1 X41.269 Y56.929 E28.98602
G1 X41.817 Y55.825 E29.06387
G1 X42.141 Y55.217 E29.10737
G1 X42.828 Y54.023 E29.19439
G1 X43.643 Y52.737 E29.29049
G1 X44.032 Y52.168 E29.33406
G1 X44.756 Y51.172 E29.41181
G1 X45.610 Y50.089 E29.49886
G1 X46.605 Y48.937 E29.59500
G1 X47.689 Y47.795 E29.69442
G1 E27.69442 F2400.00000
G92 E0
G1 X110.301 Y110.301 F7800.000
G1 E2.00000 F2400.00000
G1 X111.302 Y109.348 E2.08729 F1800.000
G1 X112.144 Y108.621 E2.15753
G1 X113.012 Y107.933 E2.22748
G1 X114.363 Y106.974 E2.33209
G1 X115.302 Y106.377 E2.40233
G1 X116.261 Y105.824 E2.47228
G1 X117.738 Y105.072 E2.57689
G1 X118.754 Y104.619 E2.64713
G1 X120.300 Y104.025 E2.75175
G1 X121.358 Y103.682 E2.82199
G1 X122.959 Y103.253 E2.92661
G1 X124.042 Y103.022 E2.99655
G1 X125.148 Y102.836 E3.06737
G1 X126.785 Y102.647 E3.17141
G1 X127.895 Y102.577 E3.24165
G1 X129.011 Y102.554 E3.31217
G1 X130.658 Y102.606 E3.41621 F1800.000
G1 X131.762 Y102.698 E3.48616
G1 X132.861 Y102.837 E3.55610
G1 X133.953 Y103.022 E3.62605
G1 X135.037 Y103.252 E3.69599
G1 X136.110 Y103.527 E3.76595
G1 X137.170 Y103.847 E3.83589
G1 X138.216 Y104.212 E3.90584
G1 X139.246 Y104.619 E3.97578
G1 X140.258 Y105.070 E4.04573
G1 X141.250 Y105.562 E4.11567
G1 X142.221 Y106.096 E4.18562
G1 X143.169 Y106.669 E4.25557
G1 X144.091 Y107.282 E4.32552
G1 X144.991 Y107.936 E4.39576
G1 X145.859 Y108.624 E4.46570
G1 X146.698 Y109.348 E4.53564
G1 X147.505 Y110.106 E4.60559
G1 X148.280 Y110.898 E4.67554
G1 X149.021 Y111.721 E4.74549
G1 X149.727 Y112.575 E4.81543
G1 X150.710 Y113.897 E4.91947
G1 X151.328 Y114.827 E4.98999
G1 X151.897 Y115.767 E5.05937
G1 X152.436 Y116.745 E5.12989
G1 X152.928 Y117.737 E5.19983
G1 X153.379 Y118.749 E5.26978
G1 X153.787 Y119.779 E5.33972
G1 X154.151 Y120.825 E5.40967
G1 X154.473 Y121.890 E5.47991
G1 X154.747 Y122.959 E5.54957
G1 X154.977 Y124.042 E5.61950
G1 X155.162 Y125.134 E5.68946
G1 X155.301 Y126.233 E5.75940
G1 X155.394 Y127.337 E5.82935
G1 X155.441 Y128.444 E5.89930
G1 X155.441 Y129.552 E5.96925
G1 X155.394 Y130.658 E6.03919
G1 X155.302 Y131.762 E6.10914
G1 X155.162 Y132.866 E6.17938
G1 X154.978 Y133.958 E6.24933
G1 X154.747 Y135.041 E6.31927
G1 X154.473 Y136.110 E6.38893
G1 X154.151 Y137.175 E6.45916
G1 X153.787 Y138.221 E6.52911
G1 X153.165 Y139.746 E6.63315
G1 X152.689 Y140.757 E6.70368
G1 X152.176 Y141.739 E6.77361
G1 X151.623 Y142.698 E6.84356
G1 X151.029 Y143.633 E6.91351
G1 X150.397 Y144.543 E6.98346
G1 X149.727 Y145.425 E7.05341
G1 X149.021 Y146.279 E7.12334
G1 X148.280 Y147.102 E7.19329
G1 X147.502 Y147.897 E7.26354
G1 X146.698 Y148.652 E7.33319
G1 X145.859 Y149.376 E7.40314
G1 X144.991 Y150.064 E7.47308
G1 X144.091 Y150.718 E7.54332
G1 X143.173 Y151.328 E7.61298
G1 X142.225 Y151.902 E7.68292
G1 X141.255 Y152.436 E7.75287
G1 X140.262 Y152.928 E7.82281
G1 X139.246 Y153.381 E7.89306
G1 X138.216 Y153.788 E7.96300
G1 X137.175 Y154.151 E8.03266
G1 X136.110 Y154.473 E8.10289
G1 X135.037 Y154.748 E8.17285
G1 X133.953 Y154.978 E8.24279
G1 X132.861 Y155.163 E8.31273
G1 X131.762 Y155.302 E8.38268
G1 X130.658 Y155.394 E8.45263
G1 X129.556 Y155.441 E8.52228
G1 X128.444 Y155.441 E8.59252
G1 X127.342 Y155.394 E8.66217
G1 X126.233 Y155.301 E8.73242
G1 X125.139 Y155.163 E8.80207
G1 X124.042 Y154.977 E8.87232
G1 X122.950 Y154.745 E8.94283
G1 X121.358 Y154.318 E9.04687
G1 X120.305 Y153.976 E9.11682
G1 X119.267 Y153.590 E9.18676
G1 X118.241 Y153.159 E9.25700
G1 X117.231 Y152.683 E9.32752
G1 X115.779 Y151.904 E9.43156
G1 X114.831 Y151.331 E9.50151
G1 X113.909 Y150.718 E9.57146
G1 X113.012 Y150.067 E9.64140
G1 X112.144 Y149.379 E9.71135
G1 X111.306 Y148.655 E9.78129
G1 X110.498 Y147.897 E9.85124
G1 X109.723 Y147.105 E9.92119
G1 X108.982 Y146.282 E9.99114
G1 X108.276 Y145.429 E10.06108
G1 X107.606 Y144.547 E10.13103
G1 X106.973 Y143.637 E10.20098
G1 X106.380 Y142.702 E10.27092
G1 X105.826 Y141.743 E10.34087
G1 X105.313 Y140.761 E10.41081
G1 X104.841 Y139.759 E10.48076
G1 X104.412 Y138.738 E10.55071
G1 X104.024 Y137.695 E10.62095
G1 X103.683 Y136.646 E10.69060
G1 X103.384 Y135.575 E10.76084
G1 X103.022 Y133.958 E10.86545
G1 X102.838 Y132.866 E10.93540
G1 X102.699 Y131.767 E11.00535
G1 X102.606 Y130.663 E11.07529
G1 X102.559 Y129.556 E11.14524
G1 X102.559 Y128.448 E11.21519
G1 X102.606 Y127.342 E11.28513
G1 X102.698 Y126.238 E11.35508
G1 X102.837 Y125.139 E11.42503
G1 X103.022 Y124.047 E11.49497
G1 X103.253 Y122.959 E11.56521
G1 X103.527 Y121.890 E11.63487
G1 X103.847 Y120.830 E11.70481
G1 X104.212 Y119.784 E11.77476
G1 X104.619 Y118.754 E11.84471
G1 X105.072 Y117.738 E11.91495
G1 X105.562 Y116.750 E11.98460
G1 X106.096 Y115.779 E12.05454
G1 X106.672 Y114.827 E12.12478
G1 X107.285 Y113.905 E12.19474
G1 X107.936 Y113.009 E12.26468
G1 X108.624 Y112.141 E12.33462
G1 X109.348 Y111.302 E12.40457
G1 X110.248 Y110.354 E12.48711
G1 E10.48711 F2400.00000
G92 E0
G1 X115.505 Y105.615 F7800.000
G1 X114.610 Y100.000 F7800.000
G1 X115.417 Y100.000 F7800.000
G1 X116.131 Y100.000 F7800.000
G1 X116.230 Y100.000 F7800.000
G1 X116.754 Y100.000 F7800.000
G1 X118.532 Y95.888 F7800.000
G1 X117.734 Y94.926 F7800.000
G1 E2.00000 F2400.00000
G1 X116.745 Y94.436 E2.06967 F1800.000
G1 X115.775 Y93.902 E2.13961
G1 X114.831 Y93.331 E2.20927
G1 X113.905 Y92.715 E2.27951
G1 X113.009 Y92.064 E2.34946
G1 X111.721 Y91.021 E2.45407
G1 X110.898 Y90.280 E2.52402
G1 X110.106 Y89.505 E2.59396
G1 X109.348 Y88.698 E2.66392
G1 X108.624 Y87.859 E2.73386
G1 X107.936 Y86.991 E2.80380
G1 X107.282 Y86.091 E2.87404
G1 X106.672 Y85.173 E2.94370
G1 X106.098 Y84.225 E3.01364
G1 X105.564 Y83.254 E3.08359
G1 X105.072 Y82.262 E3.15353
G1 X104.621 Y81.250 E3.22348
G1 X104.213 Y80.221 E3.29343
G1 X103.849 Y79.175 E3.36338
G1 X103.529 Y78.114 E3.43332
G1 X103.253 Y77.041 E3.50327
G1 X103.022 Y75.958 E3.57321
G1 X102.838 Y74.866 E3.64316
G1 X102.699 Y73.767 E3.71311
G1 X102.606 Y72.663 E3.78305
G1 X102.559 Y71.556 E3.85300
G1 X102.559 Y70.448 E3.92295
G1 X102.606 Y69.342 E3.99289
G1 X102.698 Y68.238 E4.06284
G1 X102.837 Y67.139 E4.13279
G1 X103.022 Y66.047 E4.20273
G1 X103.252 Y64.963 E4.27268
G1 X103.527 Y63.890 E4.34263
G1 X103.847 Y62.830 E4.41257
G1 X104.212 Y61.784 E4.48252
G1 X104.621 Y60.750 E4.55276
G1 X105.070 Y59.742 E4.62241
G1 X105.562 Y58.750 E4.69236
G1 X106.096 Y57.779 E4.76230
G1 X106.672 Y56.827 E4.83254
G1 X107.282 Y55.909 E4.90220
G1 X107.936 Y55.009 E4.97244
G1 X108.624 Y54.141 E5.04238
G1 X109.348 Y53.302 E5.11233
G1 X110.103 Y52.498 E5.18198
G1 X110.898 Y51.720 E5.25222
G1 X111.718 Y50.982 E5.32188
G1 X112.575 Y50.273 E5.39211
G1 X113.453 Y49.606 E5.46177
G1 X114.363 Y48.974 E5.53172
G1 X115.298 Y48.380 E5.60166
G1 X116.257 Y47.826 E5.67161
G1 X117.239 Y47.313 E5.74155
G1 X118.241 Y46.841 E5.81150
G1 X119.262 Y46.412 E5.88144
G1 X120.305 Y46.024 E5.95169
G1 X121.358 Y45.682 E6.02163
G1 X122.425 Y45.384 E6.09158
G1 X123.504 Y45.131 E6.16152
G1 X124.592 Y44.924 E6.23147
G1 X125.683 Y44.762 E6.30112
G1 X126.789 Y44.646 E6.37136
G1 X127.895 Y44.577 E6.44131
G1 X129.011 Y44.554 E6.51183
G1 X130.658 Y44.606 E6.61587 F1800.000
G1 X132.312 Y44.762 E6.72078
G1 X133.953 Y45.022 E6.82569
G1 X135.041 Y45.253 E6.89593
G1 X136.642 Y45.682 E7.00055
G1 X137.708 Y46.029 E7.07137
G1 X139.250 Y46.621 E7.17570
G1 X140.757 Y47.311 E7.28032
G1 X142.221 Y48.096 E7.38522
G1 X143.173 Y48.672 E7.45547
G1 X144.095 Y49.285 E7.52542
G1 X145.429 Y50.276 E7.63033
G1 X146.694 Y51.345 E7.73494
G1 X147.887 Y52.488 E7.83927
G1 X148.655 Y53.306 E7.91009
G1 X149.724 Y54.571 E8.01470
G1 X150.715 Y55.905 E8.11961
G1 X151.331 Y56.831 E8.18985
G1 X152.170 Y58.249 E8.29390
G1 X152.689 Y59.243 E8.36471
G1 X153.379 Y60.749 E8.46932
G1 X153.975 Y62.300 E8.57423
G1 X154.318 Y63.358 E8.64448
G1 X154.747 Y64.959 E8.74910
G1 X154.978 Y66.047 E8.81933
G1 X155.238 Y67.688 E8.92425
G1 X155.394 Y69.342 E9.02915
G1 X155.446 Y70.998 E9.13377
G1 X155.423 Y72.110 E9.20401
G1 X155.302 Y73.762 E9.30863
G1 X155.076 Y75.408 E9.41353
G1 X154.868 Y76.501 E9.48378
G1 X154.615 Y77.579 E9.55373
G1 X154.151 Y79.175 E9.65864
G1 X153.590 Y80.733 E9.76325
G1 X152.930 Y82.258 E9.86816
G1 X152.436 Y83.255 E9.93840
G1 X151.623 Y84.698 E10.04301
G1 X151.026 Y85.637 E10.11326
G1 X150.064 Y86.991 E10.21817
G1 X149.021 Y88.279 E10.32278
G1 X147.903 Y89.495 E10.42712
G1 X147.102 Y90.280 E10.49794
G1 X145.856 Y91.379 E10.60284
G1 X144.547 Y92.394 E10.70746
G1 X143.626 Y93.034 E10.77828
G1 X142.221 Y93.904 E10.88261
G1 X140.761 Y94.687 E10.98723
G1 X139.250 Y95.379 E11.09214
G1 X138.208 Y95.792 E11.16295
G1 X136.642 Y96.318 E11.26729
G1 X135.041 Y96.747 E11.37190
G1 X133.953 Y96.978 E11.44215
G1 X132.312 Y97.238 E11.54705
G1 X130.663 Y97.394 E11.65167
G1 X129.552 Y97.441 E11.72191
G1 X127.895 Y97.423 E11.82653
G1 X126.238 Y97.302 E11.93144
G1 X125.134 Y97.162 E12.00168
G1 X123.504 Y96.869 E12.10629
G1 X122.421 Y96.615 E12.17654
G1 X120.825 Y96.151 E12.28144
G1 X119.267 Y95.590 E12.38606
G1 X117.802 Y94.958 E12.48680
G1 E10.48680 F2400.00000
G92 E0
G1 X107.837 Y87.767 F7800.000
G1 X100.000 Y89.308 F7800.000
G1 X100.000 Y86.899 F7800.000
G1 X100.000 Y86.087 F7800.000
G1 X100.000 Y85.332 F7800.000
G1 X100.000 Y84.711 F7800.000
G1 X100.000 Y84.711 F7800.000
G1 X95.428 Y82.501 F7800.000
G1 X94.516 Y83.097 F7800.000
G1 E2.00000 F2400.00000
G1 X94.174 Y83.743 E2.04611 F1800.000
G1 X93.623 Y84.698 E2.11576
G1 X92.718 Y86.091 E2.22068
G1 X91.727 Y87.425 E2.32559
G1 X90.652 Y88.698 E2.43078
G1 X89.502 Y89.897 E2.53570
G1 X88.279 Y91.021 E2.64062
G1 X86.988 Y92.067 E2.74552
G1 X86.091 Y92.718 E2.81546
G1 X85.173 Y93.328 E2.88511
G1 X83.743 Y94.174 E2.99003
G1 X82.262 Y94.928 E3.09493
G1 X80.733 Y95.590 E3.20014
G1 X79.170 Y96.153 E3.30505
G1 X78.110 Y96.473 E3.37499
G1 X77.041 Y96.747 E3.44465
G1 X75.413 Y97.076 E3.54956
G1 X73.767 Y97.301 E3.65447
G1 X72.105 Y97.423 E3.75968
G1 X70.435 Y97.440 E3.86515
G1 X69.342 Y97.394 E3.93423
G1 X68.238 Y97.302 E4.00418
G1 X66.592 Y97.076 E4.10909
G1 X64.963 Y96.748 E4.21400
G1 X63.358 Y96.318 E4.31891
G1 X61.779 Y95.787 E4.42412
G1 X60.233 Y95.155 E4.52960
G1 X59.243 Y94.689 E4.59867
G1 X58.261 Y94.176 E4.66862
G1 X56.831 Y93.331 E4.77354
G1 X55.453 Y92.394 E4.87873
G1 X54.141 Y91.376 E4.98364
G1 X52.895 Y90.277 E5.08856
G1 X51.720 Y89.102 E5.19347
G1 X50.621 Y87.856 E5.29838
G1 X49.936 Y86.991 E5.36802
G1 X49.285 Y86.095 E5.43797
G1 X48.380 Y84.702 E5.54288
G1 X47.564 Y83.254 E5.64780
G1 X46.841 Y81.759 E5.75270
G1 X46.213 Y80.221 E5.85762
G1 X45.682 Y78.642 E5.96282
G1 X45.252 Y77.037 E6.06773
G1 X45.022 Y75.958 E6.13738
G1 X44.838 Y74.866 E6.20733
G1 X44.647 Y73.215 E6.31224
G1 X44.559 Y71.551 E6.41744
G1 X44.577 Y69.895 E6.52206
