; generated by Slic3r 1.2.9 on 2017-02-06 at 15:03:00

; external perimeters extrusion width = 0.50mm
; perimeters extrusion width = 0.72mm
; infill extrusion width = 0.72mm
; solid infill extrusion width = 0.72mm
; top infill extrusion width = 0.72mm

M107
M104 S270 ; set temperature
G28 ; home all axes
G1 Z5 F5000 ; lift nozzle

M109 S270 ; wait for temperature to be reached
G21 ; set units to millimeters
G90 ; use absolute coordinates
M82 ; use absolute distances for extrusion
G92 E0
G1 Z0.500 F7800.000
G1 E-2.00000 F2400.00000
G92 E0
G1 X75.906 Y77.556 F7800.000
G1 E2.00000 F2400.00000
G1 X131.801 Y22.850 E6.93870 F1800.000
G1 X132.858 Y21.860 E7.03015
G1 X133.903 Y20.962 E7.11712
G1 X134.985 Y20.108 E7.20417
G1 X136.101 Y19.302 E7.29110
G1 X137.250 Y18.542 E7.37807
G1 X138.430 Y17.831 E7.46511
G1 X139.639 Y17.170 E7.55211
G1 X140.743 Y16.621 E7.62995
G1 X141.369 Y16.333 E7.67346
G1 X142.637 Y15.797 E7.76043
G1 X143.928 Y15.314 E7.84743
G1 X145.238 Y14.885 E7.93449
G1 X146.702 Y14.476 E8.03050
G1 X148.045 Y14.164 E8.11751
G1 X149.399 Y13.909 E8.20455
G1 X150.763 Y13.710 E8.29155
G1 X152.133 Y13.569 E8.37852
G1 X153.508 Y13.486 E8.46555
G1 X154.892 Y13.460 E8.55295
G1 X156.262 Y13.492 E8.63946 F1800.000
G1 X157.494 Y13.569 E8.71743
G1 X158.324 Y13.648 E8.77004
G1 X159.547 Y13.802 E8.84791
G1 X160.906 Y14.029 E8.93489
G1 X161.721 Y14.193 E8.98737
G1 X162.924 Y14.476 E9.06541
G1 X163.728 Y14.691 E9.11800
G1 X164.909 Y15.047 E9.19588
G1 X165.699 Y15.314 E9.24854
G1 X166.988 Y15.796 E9.33544
G1 X168.125 Y16.274 E9.41334
G1 X168.884 Y16.621 E9.46603
G1 X170.115 Y17.236 E9.55291
G1 X171.197 Y17.831 E9.63088
G1 X171.915 Y18.255 E9.68352
G1 X172.955 Y18.915 E9.76132
G1 X173.646 Y19.385 E9.81407
G1 X174.759 Y20.197 E9.90106
G1 X175.724 Y20.962 E9.97887
G1 X176.359 Y21.499 E10.03137
G1 X177.278 Y22.326 E10.10939
G1 X178.259 Y23.283 E10.19594
G1 X178.840 Y23.888 E10.24896
G1 X179.667 Y24.806 E10.32693
G1 X180.204 Y25.442 E10.37948
G1 X180.969 Y26.407 E10.45730
G1 X181.782 Y27.520 E10.54430
G1 X182.251 Y28.211 E10.59703
G1 X182.986 Y29.375 E10.68396
G1 X183.603 Y30.444 E10.76190
G1 X184.241 Y31.657 E10.84843
G1 X184.606 Y32.413 E10.90143
G1 X185.108 Y33.540 E10.97939
G1 X185.423 Y34.312 E11.03198
G1 X185.900 Y35.603 E11.11894
G1 X186.281 Y36.777 E11.19685
G1 X186.655 Y38.102 E11.28377
G1 X186.854 Y38.913 E11.33651
G1 X187.110 Y40.117 E11.41427
G1 X187.257 Y40.938 E11.46692
G1 X187.438 Y42.158 E11.54482
G1 X187.533 Y42.987 E11.59746
G1 X187.646 Y44.359 E11.68442
G1 X187.697 Y45.593 E11.76242
G1 X187.700 Y46.962 E11.84887
G1 X187.674 Y47.802 E11.90192
G1 X187.597 Y49.033 E11.97984
G1 X187.518 Y49.862 E12.03242
G1 X187.364 Y51.087 E12.11036
G1 X187.137 Y52.445 E12.19727
G1 X186.972 Y53.261 E12.24984
G1 X186.691 Y54.463 E12.32780
G1 X186.325 Y55.784 E12.41438
G1 X186.074 Y56.585 E12.46741
G1 X185.668 Y57.752 E12.54539
G1 X185.369 Y58.529 E12.59793
G1 X184.891 Y59.666 E12.67582
G1 X184.545 Y60.423 E12.72841
G1 X183.930 Y61.655 E12.81537
G1 X183.335 Y62.736 E12.89326
G1 X182.911 Y63.454 E12.94591
G1 X182.250 Y64.495 E13.02381
G1 X181.466 Y65.629 E13.11083
G1 X180.635 Y66.728 E13.19785
G1 X179.761 Y67.790 E13.28471
G1 X178.840 Y68.816 E13.37177
G1 X177.826 Y69.855 E13.46342
G1 X68.199 Y177.150 E23.14971
G1 X67.142 Y178.140 E23.24116
G1 X66.624 Y178.594 E23.28468
G1 X65.674 Y179.380 E23.36253
G1 X65.015 Y179.892 E23.41519
G1 X63.900 Y180.698 E23.50209
G1 X62.871 Y181.381 E23.58007
G1 X62.164 Y181.820 E23.63262
G1 X61.095 Y182.437 E23.71052
G1 X60.361 Y182.830 E23.76314
G1 X59.257 Y183.379 E23.84098
G1 X58.500 Y183.725 E23.89357
G1 X57.228 Y184.256 E23.98057
G1 X56.072 Y184.686 E24.05846
G1 X55.282 Y184.952 E24.11114
G1 X54.101 Y185.309 E24.18901
G1 X53.297 Y185.524 E24.24160
G1 X51.956 Y185.836 E24.32848
G1 X50.743 Y186.067 E24.40650
G1 X49.921 Y186.197 E24.45903
G1 X48.696 Y186.352 E24.53697
G1 X47.867 Y186.431 E24.58956
G1 X46.636 Y186.508 E24.66748
G1 X45.797 Y186.534 E24.72048
G1 X44.427 Y186.531 E24.80697
G1 X43.193 Y186.480 E24.88497
G1 X42.363 Y186.419 E24.93749
G1 X41.135 Y186.290 E25.01547
G1 X40.310 Y186.176 E25.06809
G1 X39.094 Y185.971 E25.14594
G1 X38.278 Y185.806 E25.19849
G1 X37.076 Y185.524 E25.27647
G1 X35.749 Y185.157 E25.36344
G1 X34.953 Y184.908 E25.41608
G1 X33.788 Y184.502 E25.49399
G1 X33.011 Y184.204 E25.54654
G1 X31.875 Y183.726 E25.62439
G1 X31.246 Y183.440 E25.66797
G1 X29.884 Y182.764 E25.76404
G1 X28.678 Y182.098 E25.85099
G1 X28.085 Y181.745 E25.89458
G1 X27.045 Y181.085 E25.97237
G1 X25.796 Y180.217 E26.06842
G1 X24.699 Y179.380 E26.15553
G1 X23.749 Y178.594 E26.23338
G1 X23.231 Y178.140 E26.27689
G1 X22.224 Y177.199 E26.36392
G1 X21.160 Y176.112 E26.45999
G1 X20.239 Y175.085 E26.54705
G1 X19.796 Y174.558 E26.59051
G1 X19.031 Y173.593 E26.66833
G1 X18.136 Y172.361 E26.76450
G1 X17.749 Y171.789 E26.80806
G1 X17.089 Y170.749 E26.88587
G1 X16.397 Y169.557 E26.97289
G1 X15.692 Y168.208 E27.06897
G1 X15.167 Y167.092 E27.14685
G1 X14.892 Y166.459 E27.19044
G1 X14.382 Y165.179 E27.27744
G1 X13.881 Y163.743 E27.37350
G1 X13.677 Y163.085 E27.41699
G1 X13.345 Y161.898 E27.49480
G1 X12.998 Y160.417 E27.59091
G1 X12.743 Y159.062 E27.67795
G1 X12.636 Y158.381 E27.72146
G1 X12.482 Y157.158 E27.79933
G1 X12.354 Y155.641 E27.89545
G1 X12.320 Y154.953 E27.93895
G1 X12.294 Y153.727 E28.01640
G1 X12.320 Y152.342 E28.10382
G1 X12.415 Y150.824 E28.19990
G1 X12.562 Y149.453 E28.28693
G1 X12.657 Y148.771 E28.33044
G1 X12.863 Y147.555 E28.40829
G1 X13.179 Y146.066 E28.50443
G1 X13.345 Y145.397 E28.54797
G1 X13.675 Y144.217 E28.62535
G1 X14.100 Y142.898 E28.71281
G1 X14.631 Y141.471 E28.80895
G1 X15.167 Y140.203 E28.89592
G1 X15.455 Y139.577 E28.93942
G1 X16.003 Y138.473 E29.01727
G1 X16.665 Y137.264 E29.10427
G1 X17.453 Y135.963 E29.20033
G1 X18.219 Y134.815 E29.28745
G1 X18.942 Y133.819 E29.36520
G1 X19.365 Y133.272 E29.40883
G1 X20.334 Y132.101 E29.50484
G1 X21.258 Y131.078 E29.59188
G1 X22.174 Y130.145 E29.67443
G1 X75.853 Y77.609 E34.41729
G1 E32.41729 F2400.00000
G92 E0
G1 X51.579 Y144.040 F7800.000
G1 E2.00000 F2400.00000
G1 X35.794 Y144.040 E2.99678 F1800.000
G1 X35.794 Y132.255 E3.74097
G1 X51.579 Y132.255 E4.73775
G1 X51.579 Y143.965 E5.47721
G1 X50.686 Y143.148 F7800.000
G1 X36.686 Y143.148 E6.36125 F1800.000
G1 X36.686 Y133.148 E6.99270
G1 X50.686 Y133.148 E7.87674
G1 X50.686 Y143.073 E8.50346
G1 X50.686 Y143.648 F7800.000
G1 X51.786 Y131.362 F7800.000
G1 X38.579 Y131.362 E9.33741 F1800.000
G1 X38.518 Y130.896 E9.36707
G1 X39.783 Y130.558 E9.44978
G1 X40.731 Y130.356 E9.51099
G1 X42.226 Y130.119 E9.60657
G1 X43.202 Y130.017 E9.66854
G1 X44.193 Y129.954 E9.73124
G1 X45.181 Y129.934 E9.79363
G1 X46.687 Y129.981 E9.88880
G1 X47.665 Y130.063 E9.95077
G1 X48.639 Y130.186 E10.01273
G1 X50.128 Y130.454 E10.10832
G1 X51.072 Y130.676 E10.16952
G1 X51.851 Y130.902 E10.22074
G1 X51.796 Y131.288 E10.24535
G1 X49.972 Y166.362 F7800.000
G1 X49.972 Y175.933 E10.84971 F1800.000
G1 X40.401 Y175.933 E11.45406
G1 X40.401 Y166.362 E12.05841
G1 X49.897 Y166.362 E12.65803
G1 X49.079 Y167.255 F7800.000
G1 X49.079 Y175.040 E13.14964 F1800.000
G1 X41.294 Y175.040 E13.64126
G1 X41.294 Y167.255 E14.13287
G1 X49.004 Y167.255 E14.61975
G1 X48.186 Y168.148 F7800.000
G1 X48.186 Y174.148 E14.99862 F1800.000
G1 X42.186 Y174.148 E15.37749
G1 X42.186 Y168.148 E15.75637
G1 X48.111 Y168.148 E16.13051
G1 X48.686 Y168.148 F7800.000
G1 X52.472 Y144.933 F7800.000
G1 X52.472 Y131.079 E17.00531 F1800.000
G1 X53.452 Y131.421 E17.07088
G1 X54.376 Y131.786 E17.13360
G1 X55.272 Y132.186 E17.19557
G1 X56.621 Y132.873 E17.29115
G1 X57.471 Y133.363 E17.35310
G1 X58.305 Y133.893 E17.41548
G1 X59.533 Y134.766 E17.51064
G1 X60.302 Y135.375 E17.57261
G1 X61.050 Y136.021 E17.63499
G1 X62.138 Y137.064 E17.73016
G1 X62.809 Y137.780 E17.79213
G1 X63.458 Y138.532 E17.85485
G1 X64.068 Y139.301 E17.91682
G1 X64.938 Y140.525 E18.01164
G1 X65.726 Y141.795 E18.10605
G1 X66.202 Y142.661 E18.16844
G1 X66.638 Y143.540 E18.23040
G1 X67.237 Y144.923 E18.32556
G1 X67.581 Y145.849 E18.38795
G1 X67.885 Y146.782 E18.44991
G1 X68.275 Y148.238 E18.54507
G1 X68.480 Y149.204 E18.60746
G1 X68.646 Y150.183 E18.67017
G1 X68.769 Y151.157 E18.73214
G1 X68.880 Y152.660 E18.82730
G1 X68.900 Y153.648 E18.88969
G1 X68.880 Y154.629 E18.95165
G1 X68.770 Y156.132 E19.04681
G1 X68.646 Y157.112 E19.10920
G1 X68.480 Y158.091 E19.17191
G1 X68.276 Y159.051 E19.23387
G1 X67.886 Y160.507 E19.32904
G1 X67.581 Y161.447 E19.39143
G1 X67.235 Y162.377 E19.45414
G1 X66.855 Y163.282 E19.51610
G1 X66.196 Y164.645 E19.61168
G1 X65.729 Y165.494 E19.67290
G1 X64.935 Y166.775 E19.76805
G1 X64.371 Y167.586 E19.83044
G1 X63.778 Y168.368 E19.89240
G1 X62.801 Y169.524 E19.98798
G1 X62.138 Y170.231 E20.04918
G1 X61.045 Y171.278 E20.14477
G1 X60.302 Y171.920 E20.20673
G1 X59.533 Y172.529 E20.26870
G1 X58.299 Y173.406 E20.36428
G1 X57.471 Y173.932 E20.42624
G1 X56.621 Y174.422 E20.48821
G1 X55.272 Y175.110 E20.58378
G1 X54.387 Y175.504 E20.64499
G1 X52.974 Y176.046 E20.74058
G1 X52.052 Y176.346 E20.80179
G1 X50.590 Y176.738 E20.89737
G1 X49.630 Y176.942 E20.95933
G1 X48.651 Y177.107 E21.02205
G1 X47.677 Y177.230 E21.08401
G1 X46.167 Y177.341 E21.17959
G1 X45.186 Y177.362 E21.24156
G1 X44.205 Y177.341 E21.30353
G1 X42.696 Y177.230 E21.39911
G1 X41.722 Y177.107 E21.46107
G1 X40.743 Y176.942 E21.52379
G1 X39.783 Y176.738 E21.58575
G1 X38.321 Y176.346 E21.68133
G1 X37.388 Y176.043 E21.74329
G1 X36.462 Y175.698 E21.80567
G1 X35.079 Y175.099 E21.90084
G1 X34.200 Y174.663 E21.96281
G1 X33.340 Y174.190 E22.02477
G1 X32.063 Y173.399 E22.11960
G1 X30.839 Y172.529 E22.21442
G1 X30.070 Y171.920 E22.27639
G1 X29.318 Y171.271 E22.33911
G1 X28.603 Y170.599 E22.40107
G1 X27.560 Y169.511 E22.49624
G1 X26.914 Y168.763 E22.55863
G1 X26.305 Y167.994 E22.62059
G1 X25.432 Y166.766 E22.71575
G1 X24.902 Y165.932 E22.77814
G1 X24.411 Y165.082 E22.84010
G1 X23.727 Y163.740 E22.93526
G1 X23.330 Y162.848 E22.99689
G1 X22.788 Y161.435 E23.09246
G1 X22.488 Y160.513 E23.15368
G1 X22.098 Y159.057 E23.24884
G1 X21.892 Y158.091 E23.31123
G1 X21.727 Y157.112 E23.37393
G1 X21.604 Y156.138 E23.43590
G1 X21.493 Y154.635 E23.53107
G1 X21.472 Y153.647 E23.59346
G1 X21.493 Y152.666 E23.65542
G1 X21.603 Y151.163 E23.75058
G1 X21.727 Y150.183 E23.81297
G1 X21.892 Y149.204 E23.87567
G1 X22.096 Y148.244 E23.93764
G1 X22.488 Y146.782 E24.03322
G1 X22.788 Y145.860 E24.09443
G1 X23.330 Y144.447 E24.19001
G1 X23.724 Y143.561 E24.25123
G1 X24.408 Y142.219 E24.34639
G1 X24.902 Y141.363 E24.40878
G1 X25.428 Y140.534 E24.47073
G1 X26.305 Y139.301 E24.56630
G1 X26.914 Y138.532 E24.62827
G1 X27.555 Y137.789 E24.69024
G1 X28.603 Y136.696 E24.78582
G1 X29.318 Y136.025 E24.84778
G1 X30.070 Y135.376 E24.91050
G1 X30.839 Y134.766 E24.97247
G1 X32.063 Y133.896 E25.06729
G1 X33.340 Y133.105 E25.16211
G1 X34.189 Y132.638 E25.22332
G1 X34.901 Y132.294 E25.27324
G1 X34.901 Y144.933 E26.07136
G1 X52.397 Y144.933 E27.17614
G1 X61.127 Y134.908 F7800.000
G1 X61.651 Y135.361 E27.21985 F1800.000
G1 X62.772 Y136.436 E27.31797
G1 X63.473 Y137.182 E27.38259
G1 X64.146 Y137.963 E27.44767
G1 X64.782 Y138.765 E27.51230
G1 X65.682 Y140.031 E27.61037
G1 X66.497 Y141.345 E27.70802
G1 X66.993 Y142.247 E27.77307
G1 X67.448 Y143.164 E27.83768
G1 X68.065 Y144.590 E27.93580
G1 X68.425 Y145.555 E28.00084
G1 X68.741 Y146.529 E28.06546
G1 X69.143 Y148.029 E28.16357
G1 X69.357 Y149.037 E28.22862
G1 X69.529 Y150.053 E28.29369
G1 X69.658 Y151.068 E28.35832
G1 X69.772 Y152.618 E28.45643
G1 X69.793 Y153.648 E28.52148
G1 X69.772 Y154.671 E28.58609
G1 X69.658 Y156.220 E28.68420
G1 X69.529 Y157.242 E28.74925
G1 X69.357 Y158.258 E28.81432
G1 X69.145 Y159.260 E28.87895
G1 X68.743 Y160.760 E28.97706
G1 X68.425 Y161.740 E29.04211
G1 X68.065 Y162.706 E29.10718
G1 X67.669 Y163.649 E29.17180
G1 X66.990 Y165.054 E29.27034
G1 X66.500 Y165.945 E29.33450
G1 X65.682 Y167.265 E29.43261
G1 X65.094 Y168.111 E29.49766
G1 X64.475 Y168.926 E29.56227
G1 X63.468 Y170.118 E29.66080
G1 X62.772 Y170.859 E29.72496
G1 X61.646 Y171.939 E29.82350
G1 X60.871 Y172.608 E29.88812
G1 X60.069 Y173.243 E29.95274
G1 X58.797 Y174.147 E30.05127
G1 X57.933 Y174.696 E30.11590
G1 X57.047 Y175.207 E30.18052
G1 X55.657 Y175.916 E30.27905
G1 X54.729 Y176.329 E30.34321
G1 X53.272 Y176.888 E30.44174
G1 X52.305 Y177.202 E30.50590
G1 X50.798 Y177.606 E30.60444
G1 X49.797 Y177.819 E30.66906
G1 X48.781 Y177.991 E30.73414
G1 X47.766 Y178.119 E30.79876
G1 X46.209 Y178.233 E30.89729
G1 X45.186 Y178.255 E30.96192
G1 X44.163 Y178.233 E31.02654
G1 X42.607 Y178.119 E31.12507
G1 X41.592 Y177.991 E31.18969
G1 X40.575 Y177.819 E31.25477
G1 X39.574 Y177.606 E31.31939
G1 X38.067 Y177.202 E31.41793
G1 X37.094 Y176.886 E31.48254
G1 X36.129 Y176.527 E31.54759
G1 X34.703 Y175.909 E31.64570
G1 X33.786 Y175.454 E31.71032
G1 X32.889 Y174.961 E31.77494
G1 X31.569 Y174.143 E31.87302
G1 X30.303 Y173.243 E31.97109
G1 X29.501 Y172.608 E32.03571
G1 X28.721 Y171.934 E32.10079
G1 X27.975 Y171.234 E32.16541
G1 X26.899 Y170.112 E32.26353
G1 X26.226 Y169.333 E32.32858
G1 X25.591 Y168.531 E32.39320
G1 X24.690 Y167.264 E32.49131
G1 X24.138 Y166.395 E32.55635
G1 X23.627 Y165.508 E32.62097
G1 X22.921 Y164.124 E32.71908
G1 X22.505 Y163.190 E32.78367
G1 X21.946 Y161.733 E32.88219
G1 X21.632 Y160.767 E32.94636
G1 X21.229 Y159.266 E33.04447
G1 X21.015 Y158.258 E33.10951
G1 X20.843 Y157.242 E33.17459
G1 X20.715 Y156.227 E33.23921
G1 X20.601 Y154.677 E33.33732
G1 X20.579 Y153.647 E33.40237
G1 X20.601 Y152.624 E33.46699
G1 X20.714 Y151.075 E33.56510
G1 X20.843 Y150.053 E33.63015
G1 X21.015 Y149.037 E33.69522
G1 X21.228 Y148.036 E33.75984
G1 X21.632 Y146.528 E33.85838
G1 X21.946 Y145.562 E33.92253
G1 X22.505 Y144.105 E34.02107
G1 X22.918 Y143.177 E34.08524
G1 X23.624 Y141.793 E34.18335
G1 X24.138 Y140.900 E34.24839
G1 X24.687 Y140.036 E34.31300
G1 X25.591 Y138.765 E34.41154
G1 X26.226 Y137.963 E34.47616
G1 X26.895 Y137.188 E34.54078
G1 X27.975 Y136.062 E34.63932
G1 X28.721 Y135.361 E34.70394
G1 X29.501 Y134.688 E34.76902
G1 X30.303 Y134.052 E34.83364
G1 X31.569 Y133.152 E34.93171
G1 X32.889 Y132.334 E35.02978
G1 X33.780 Y131.844 E35.09394
G1 X35.184 Y131.165 E35.19247
G1 X36.128 Y130.769 E35.25710
G1 X37.094 Y130.409 E35.32217
G1 X38.074 Y130.091 E35.38722
G1 X39.574 Y129.689 E35.48533
G1 X40.568 Y129.478 E35.54949
G1 X42.109 Y129.234 E35.64803
G1 X43.127 Y129.127 E35.71265
G1 X44.156 Y129.062 E35.77772
G1 X45.186 Y129.041 E35.84277
G1 X46.739 Y129.090 E35.94088
G1 X47.758 Y129.175 E36.00551 F1800.000
G1 X48.774 Y129.304 E36.07012
G1 X50.310 Y129.580 E36.16866
G1 X51.299 Y129.812 E36.23282
G1 X52.797 Y130.247 E36.33135
G1 X53.764 Y130.584 E36.39597
G1 X54.722 Y130.963 E36.46106
G1 X55.657 Y131.380 E36.52568
G1 X57.047 Y132.088 E36.62421
G1 X57.933 Y132.600 E36.68882
G1 X58.803 Y133.152 E36.75387
G1 X60.069 Y134.052 E36.85198
G1 X61.070 Y134.859 E36.93318
G1 X61.710 Y134.233 F7800.000
G1 X62.252 Y134.700 E36.97837 F1800.000
G1 X63.407 Y135.808 E37.07944
G1 X64.136 Y136.585 E37.14671
G1 X64.834 Y137.393 E37.21416
G1 X65.496 Y138.228 E37.28144
G1 X66.426 Y139.536 E37.38276
G1 X67.268 Y140.894 E37.48365
G1 X67.784 Y141.834 E37.55136
G1 X68.258 Y142.788 E37.61863
G1 X68.894 Y144.257 E37.71969
G1 X69.268 Y145.262 E37.78740
G1 X69.597 Y146.275 E37.85467
G1 X70.011 Y147.821 E37.95573
G1 X70.235 Y148.869 E38.02344
G1 X70.413 Y149.922 E38.09088
G1 X70.546 Y150.980 E38.15816
G1 X70.664 Y152.576 E38.25922
G1 X70.686 Y153.648 E38.32692
G1 X70.664 Y154.713 E38.39420
G1 X70.547 Y156.309 E38.49526
G1 X70.413 Y157.373 E38.56297
G1 X70.235 Y158.426 E38.63041
G1 X70.013 Y159.468 E38.69768
G1 X69.599 Y161.014 E38.79874
G1 X69.268 Y162.034 E38.86645
G1 X68.896 Y163.035 E38.93389
G1 X68.483 Y164.017 E39.00117
G1 X67.783 Y165.464 E39.10265
G1 X67.271 Y166.395 E39.16977
G1 X66.428 Y167.756 E39.27082
G1 X65.816 Y168.636 E39.33853
G1 X65.172 Y169.485 E39.40581
G1 X64.135 Y170.712 E39.50729
G1 X63.407 Y171.487 E39.57440
G1 X62.247 Y172.599 E39.67589
G1 X61.441 Y173.296 E39.74317
G1 X60.606 Y173.957 E39.81045
G1 X59.296 Y174.888 E39.91193
G1 X58.396 Y175.459 E39.97921
G1 X57.473 Y175.992 E40.04649
